!!!COM: Haydn, Franz Joseph
!!!OPR: London Symphonies
!!!OTL: Symphony no. 94 in G major
!!!SCT: Hob. I:94
!!!OMV: 2
!!!OMD: Andante
!!!ODT: 1791///
!!!MPD: 1792/02/17/
!!!ONB: Basses also play with cello (some loss of parts)
**kern	**kern	**kern	**kern	**kern	**kern	**kern	**kern	**kern	**kern	**kern	**kern	**kern	**kern	**kern
*Icello	*Iviola	*Ivioln	*Ivioln	*Itimpa	*Itromp	*Itromp	*Icor	*Icor	*Ifagot	*Ifagot	*Ioboe	*Ioboe	*Iflt	*Iflt
*I"Violoncello	*I"Viola	*I#2	*I#1	*I"Timpani	*I#2	*I#1	*I#2	*I#1	*I#2	*I#1	*I#2	*I#1	*I#2	*I#1
*	*	*I"Violino II	*I"Violino I	*	*I"Tromba 2 in C	*I"Tromba in C1	*I"Corno 2 in C	*I"Corno 1 in C	*I"Fagotto 2	*I"Fagotto 1	*I"Oboe 2	*I"Oboe 1	*I"Flauto 2	*I"Flauto 1
*>[A,B,B,C,C,D,D,E]	*>[A,B,B,C,C,D,D,E]	*>[A,B,B,C,C,D,D,E]	*>[A,B,B,C,C,D,D,E]	*>[A,B,B,C,C,D,D,E]	*>[A,B,B,C,C,D,D,E]	*>[A,B,B,C,C,D,D,E]	*>[A,B,B,C,C,D,D,E]	*>[A,B,B,C,C,D,D,E]	*>[A,B,B,C,C,D,D,E]	*>[A,B,B,C,C,D,D,E]	*>[A,B,B,C,C,D,D,E]	*>[A,B,B,C,C,D,D,E]	*>[A,B,B,C,C,D,D,E]	*>[A,B,B,C,C,D,D,E]
*>norep[A,B,C,D,E]	*>norep[A,B,C,D,E]	*>norep[A,B,C,D,E]	*>norep[A,B,C,D,E]	*>norep[A,B,C,D,E]	*>norep[A,B,C,D,E]	*>norep[A,B,C,D,E]	*>norep[A,B,C,D,E]	*>norep[A,B,C,D,E]	*>norep[A,B,C,D,E]	*>norep[A,B,C,D,E]	*>norep[A,B,C,D,E]	*>norep[A,B,C,D,E]	*>norep[A,B,C,D,E]	*>norep[A,B,C,D,E]
*staff10	*staff9	*staff8	*staff7	*staff6	*staff5	*staff5	*staff4	*staff4	*staff3	*staff3	*staff2	*staff2	*staff1	*staff1
*clefF4	*clefC3	*clefG2	*clefG2	*clefF4	*clefG2	*clefG2	*clefG2	*clefG2	*clefF4	*clefF4	*clefG2	*clefG2	*clefG2	*clefG2
*k[]	*k[]	*k[]	*k[]	*k[]	*k[]	*k[]	*k[]	*k[]	*k[]	*k[]	*k[]	*k[]	*k[]	*k[]
*C:	*C:	*C:	*C:	*C:	*C:	*C:	*C:	*C:	*C:	*C:	*C:	*C:	*C:	*C:
*M2/4	*M2/4	*M2/4	*M2/4	*M2/4	*M2/4	*M2/4	*M2/4	*M2/4	*M2/4	*M2/4	*M2/4	*M2/4	*M2/4	*M2/4
*>A	*>A	*>A	*>A	*>A	*>A	*>A	*>A	*>A	*>A	*>A	*>A	*>A	*>A	*>A
*MM63	*MM63	*MM63	*MM63	*MM63	*MM63	*MM63	*MM63	*MM63	*MM63	*MM63	*MM63	*MM63	*MM63	*MM63
=1-	=1-	=1-	=1-	=1-	=1-	=1-	=1-	=1-	=1-	=1-	=1-	=1-	=1-	=1-
4C	4c	8c'	8c'	2r	2r	2r	2r	2r	2r	2r	2r	2r	2r	2r
.	.	8c'	8c'	.	.	.	.	.	.	.	.	.	.	.
4r	4r	8e'	8e'	.	.	.	.	.	.	.	.	.	.	.
.	.	8e'	8e'	.	.	.	.	.	.	.	.	.	.	.
=2	=2	=2	=2	=2	=2	=2	=2	=2	=2	=2	=2	=2	=2	=2
4C	4c	8g'	8g'	2r	2r	2r	2r	2r	2r	2r	2r	2r	2r	2r
.	.	8g'	8g'	.	.	.	.	.	.	.	.	.	.	.
4r	4r	4e	4e	.	.	.	.	.	.	.	.	.	.	.
=3	=3	=3	=3	=3	=3	=3	=3	=3	=3	=3	=3	=3	=3	=3
4FF	4F	8f'	8f'	2r	2r	2r	2r	2r	2r	2r	2r	2r	2r	2r
.	.	8f'	8f'	.	.	.	.	.	.	.	.	.	.	.
4r	4r	8d'	8d'	.	.	.	.	.	.	.	.	.	.	.
.	.	8d'	8d'	.	.	.	.	.	.	.	.	.	.	.
=4	=4	=4	=4	=4	=4	=4	=4	=4	=4	=4	=4	=4	=4	=4
4GG	4G	8B'	8B'	2r	2r	2r	2r	2r	2r	2r	2r	2r	2r	2r
.	.	8B'	8B'	.	.	.	.	.	.	.	.	.	.	.
4r	4r	4G	4G	.	.	.	.	.	.	.	.	.	.	.
=5	=5	=5	=5	=5	=5	=5	=5	=5	=5	=5	=5	=5	=5	=5
4CC	4C	8c'	8c'	2r	2r	2r	2r	2r	2r	2r	2r	2r	2r	2r
.	.	8c'	8c'	.	.	.	.	.	.	.	.	.	.	.
4r	4r	8e'	8e'	.	.	.	.	.	.	.	.	.	.	.
.	.	8e'	8e'	.	.	.	.	.	.	.	.	.	.	.
=6	=6	=6	=6	=6	=6	=6	=6	=6	=6	=6	=6	=6	=6	=6
4C	4c	8g'	8g'	2r	2r	2r	2r	2r	2r	2r	2r	2r	2r	2r
.	.	8g'	8g'	.	.	.	.	.	.	.	.	.	.	.
4r	4r	4e	4e	.	.	.	.	.	.	.	.	.	.	.
=7	=7	=7	=7	=7	=7	=7	=7	=7	=7	=7	=7	=7	=7	=7
8AA	8A	8cc'	8cc'	2r	2r	2r	2r	2r	2r	2r	2r	2r	2r	2r
8r	8r	8cc'	8cc'	.	.	.	.	.	.	.	.	.	.	.
8D	8d	8f#'	8f#'	.	.	.	.	.	.	.	.	.	.	.
8r	8r	8f#'	8f#'	.	.	.	.	.	.	.	.	.	.	.
=8	=8	=8	=8	=8	=8	=8	=8	=8	=8	=8	=8	=8	=8	=8
4GG	4G	4g	4g	2r	2r	2r	2r	2r	2r	2r	2r	2r	2r	2r
4r	4r	8G	8G	.	.	.	.	.	.	.	.	.	.	.
.	.	8r	8r	.	.	.	.	.	.	.	.	.	.	.
=9	=9	=9	=9	=9	=9	=9	=9	=9	=9	=9	=9	=9	=9	=9
4C	4c	4G 4e	8c'	2r	2r	2r	2r	2r	2r	2r	2r	2r	2r	2r
.	.	.	8c'	.	.	.	.	.	.	.	.	.	.	.
4r	4r	4r	8e'	.	.	.	.	.	.	.	.	.	.	.
.	.	.	8e'	.	.	.	.	.	.	.	.	.	.	.
=10	=10	=10	=10	=10	=10	=10	=10	=10	=10	=10	=10	=10	=10	=10
4C	4c	4G 4e	8g'	2r	2r	2r	2r	2r	2r	2r	2r	2r	2r	2r
.	.	.	8g'	.	.	.	.	.	.	.	.	.	.	.
4r	4r	4r	4e	.	.	.	.	.	.	.	.	.	.	.
=11	=11	=11	=11	=11	=11	=11	=11	=11	=11	=11	=11	=11	=11	=11
4FF	4F	4A 4f	8f'	2r	2r	2r	2r	2r	2r	2r	2r	2r	2r	2r
.	.	.	8f'	.	.	.	.	.	.	.	.	.	.	.
4r	4r	4r	8d'	.	.	.	.	.	.	.	.	.	.	.
.	.	.	8d'	.	.	.	.	.	.	.	.	.	.	.
=12	=12	=12	=12	=12	=12	=12	=12	=12	=12	=12	=12	=12	=12	=12
4GG	4G	4B 4d	8B'	2r	2r	2r	2r	2r	2r	2r	2r	2r	2r	2r
.	.	.	8B'	.	.	.	.	.	.	.	.	.	.	.
4r	4r	4r	4G	.	.	.	.	.	.	.	.	.	.	.
=13	=13	=13	=13	=13	=13	=13	=13	=13	=13	=13	=13	=13	=13	=13
4C	4c	4G 4e	8c'	2r	2r	2r	2r	2r	2r	2r	2r	2r	2r	2r
.	.	.	8c'	.	.	.	.	.	.	.	.	.	.	.
4r	4r	4r	8e'	.	.	.	.	.	.	.	.	.	.	.
.	.	.	8e'	.	.	.	.	.	.	.	.	.	.	.
=14	=14	=14	=14	=14	=14	=14	=14	=14	=14	=14	=14	=14	=14	=14
4C	4c	4G 4e	8g'	2r	2r	2r	2r	2r	2r	2r	2r	2r	2r	2r
.	.	.	8g'	.	.	.	.	.	.	.	.	.	.	.
4r	4r	4r	4e	.	.	.	.	.	.	.	.	.	.	.
=15	=15	=15	=15	=15	=15	=15	=15	=15	=15	=15	=15	=15	=15	=15
8AA	8A	4A 4e	8cc'	2r	2r	2r	2r	2r	2r	2r	2r	2r	2r	2r
8r	8r	.	8cc'	.	.	.	.	.	.	.	.	.	.	.
8D	8d	4A 4f#	8f#'	.	.	.	.	.	.	.	.	.	.	.
8r	8r	.	8f#'	.	.	.	.	.	.	.	.	.	.	.
=16	=16	=16	=16	=16	=16	=16	=16	=16	=16	=16	=16	=16	=16	=16
8GG	8G	8G 8g	8g	4r	4ryy	4r	4ryy	4r	4ryy	4r	4ryy	4r	4ryy	4r
8r	8r	8r	8r	.	.	.	.	.	.	.	.	.	.	.
4GG	4G	4d 4b 4gg	4d 4b 4gg	4GG	4g	4g	4G	4g	4G	4G	4g	4gg	4gg	4gg
=17	=17	=17	=17	=17	=17	=17	=17	=17	=17	=17	=17	=17	=17	=17
4BB	4B	8d	8fn	2r	2r	2r	2r	2r	2r	2r	2r	2r	2r	2r
.	.	16G	16G	.	.	.	.	.	.	.	.	.	.	.
.	.	16r	16r	.	.	.	.	.	.	.	.	.	.	.
4C	4c	8c	8e	.	.	.	.	.	.	.	.	.	.	.
.	.	16G	16G	.	.	.	.	.	.	.	.	.	.	.
.	.	16r	16r	.	.	.	.	.	.	.	.	.	.	.
=18	=18	=18	=18	=18	=18	=18	=18	=18	=18	=18	=18	=18	=18	=18
8GG	4G	8B'	8d'	2r	2r	2r	2r	2r	2r	2r	2r	2r	2r	2r
8GG	.	8B'	8d'	.	.	.	.	.	.	.	.	.	.	.
8GG	4r	16B	16d	.	.	.	.	.	.	.	.	.	.	.
.	.	16c	16e	.	.	.	.	.	.	.	.	.	.	.
8r	.	16d	16f	.	.	.	.	.	.	.	.	.	.	.
.	.	16e	16g	.	.	.	.	.	.	.	.	.	.	.
=19	=19	=19	=19	=19	=19	=19	=19	=19	=19	=19	=19	=19	=19	=19
4GG	4r	16f	16a	2r	2r	2r	2r	2r	2r	2r	2r	2r	2r	2r
.	.	16G	16G	.	.	.	.	.	.	.	.	.	.	.
.	.	16e	16g	.	.	.	.	.	.	.	.	.	.	.
.	.	16G	16G	.	.	.	.	.	.	.	.	.	.	.
4r	8B	16d	16f	.	.	.	.	.	.	.	.	.	.	.
.	.	16G	16G	.	.	.	.	.	.	.	.	.	.	.
.	8c	16c	16e	.	.	.	.	.	.	.	.	.	.	.
.	.	16G	16G	.	.	.	.	.	.	.	.	.	.	.
=20	=20	=20	=20	=20	=20	=20	=20	=20	=20	=20	=20	=20	=20	=20
8GG	8G'	8B'	8d'	2r	2r	2r	2r	2r	2r	2r	2r	2r	2r	2r
8GG	8G'	8B'	8d'	.	.	.	.	.	.	.	.	.	.	.
8GG	8G	4B	8.d	.	.	.	.	.	.	.	.	.	.	.
8r	8r	.	.	.	.	.	.	.	.	.	.	.	.	.
.	.	.	16d#	.	.	.	.	.	.	.	.	.	.	.
=21	=21	=21	=21	=21	=21	=21	=21	=21	=21	=21	=21	=21	=21	=21
8c'	8e'	8c'	8e'	2r	2r	2r	2r	2r	2r	2r	2r	2r	2r	2r
8c'	8e'	8c'	8e'	.	.	.	.	.	.	.	.	.	.	.
8G'	8c'	8e'	8g'	.	.	.	.	.	.	.	.	.	.	.
8G'	8c'	8e'	8g'	.	.	.	.	.	.	.	.	.	.	.
=22	=22	=22	=22	=22	=22	=22	=22	=22	=22	=22	=22	=22	=22	=22
8E'	8G'	8g'	8cc'	2r	2r	2r	2r	2r	2r	2r	2r	2r	2r	2r
8E'	8G'	8g'	8cc'	.	.	.	.	.	.	.	.	.	.	.
4C	4E	4cc	4ee	.	.	.	.	.	.	.	.	.	.	.
=23	=23	=23	=23	=23	=23	=23	=23	=23	=23	=23	=23	=23	=23	=23
8F	8F	8a	8dd	2r	2r	2r	2r	2r	2r	2r	2r	2r	2r	2r
8F	8F	8f	8dd	.	.	.	.	.	.	.	.	.	.	.
.	.	16eQ	16ccQ	.	.	.	.	.	.	.	.	.	.	.
8G	8G	8d	8b	.	.	.	.	.	.	.	.	.	.	.
8G	8G	16c	16a	.	.	.	.	.	.	.	.	.	.	.
.	.	16d	16b	.	.	.	.	.	.	.	.	.	.	.
=24	=24	=24	=24	=24	=24	=24	=24	=24	=24	=24	=24	=24	=24	=24
8C	8C	8e	8cc	2r	2r	2r	2r	2r	2r	2r	2r	2r	2r	2r
8C	8C	8e	8cc	.	.	.	.	.	.	.	.	.	.	.
8C	8C	8e	8cc	.	.	.	.	.	.	.	.	.	.	.
8r	8r	8r	8r	.	.	.	.	.	.	.	.	.	.	.
=25	=25	=25	=25	=25	=25	=25	=25	=25	=25	=25	=25	=25	=25	=25
4BB	4B	8d	8f	2r	2r	2r	2G	[2g	2r	2r	2ryy	4dd	2ryy	4ff
.	.	16G	16G	.	.	.	.	.	.	.	.	.	.	.
.	.	16r	16r	.	.	.	.	.	.	.	.	.	.	.
4C	4c	8c	8e	.	.	.	.	.	.	.	.	4cc	.	4ee
.	.	16G	16G	.	.	.	.	.	.	.	.	.	.	.
.	.	16r	16r	.	.	.	.	.	.	.	.	.	.	.
=26	=26	=26	=26	=26	=26	=26	=26	=26	=26	=26	=26	=26	=26	=26
4GG	8G	8B'	8d'	2r	2r	2r	2G	2g_	2r	2r	2ryy	8b'	2ryy	8dd'
.	8G	8B'	8d'	.	.	.	.	.	.	.	.	8b'	.	8dd'
4r	8G	16B	16d	.	.	.	.	.	.	.	.	16b	.	16dd
.	.	16c	16e	.	.	.	.	.	.	.	.	16cc	.	16ee
.	8r	16d	16f	.	.	.	.	.	.	.	.	16dd	.	16ff
.	.	16e	16g	.	.	.	.	.	.	.	.	16ee	.	16gg
=27	=27	=27	=27	=27	=27	=27	=27	=27	=27	=27	=27	=27	=27	=27
4GG	4r	16f	16a	2r	2r	2r	2G	2g_	2r	2r	2ryy	8ff	2ryy	8aa
.	.	16G	16G	.	.	.	.	.	.	.	.	.	.	.
.	.	16e	16g	.	.	.	.	.	.	.	.	8ee	.	8gg
.	.	16G	16G	.	.	.	.	.	.	.	.	.	.	.
4r	8B	16d	16f	.	.	.	.	.	.	.	.	8dd	.	8ff
.	.	16G	16G	.	.	.	.	.	.	.	.	.	.	.
.	8c	16c	16e	.	.	.	.	.	.	.	.	8cc	.	8ee
.	.	16G	16G	.	.	.	.	.	.	.	.	.	.	.
=28	=28	=28	=28	=28	=28	=28	=28	=28	=28	=28	=28	=28	=28	=28
4GG	8G	8B	8d	2r	2r	2r	2G	2g]	2r	2r	2ryy	8g	2ryy	8dd
.	8G	8B	8d	.	.	.	.	.	.	.	.	8g	.	8dd
4r	8G	4B	8.d	.	.	.	.	.	.	.	.	8g	.	8.dd
.	8r	.	.	.	.	.	.	.	.	.	.	8r	.	.
.	.	.	16d#	.	.	.	.	.	.	.	.	.	.	16dd#
=29	=29	=29	=29	=29	=29	=29	=29	=29	=29	=29	=29	=29	=29	=29
8c	8e	8c	8e	2r	2r	2r	8c	8cc	2r	2r	2ryy	8cc	2ryy	8ee
8c	8e	8c	8e	.	.	.	8c	8cc	.	.	.	8cc	.	8ee
8G	8c	8e	8g	.	.	.	8c	8cc	.	.	.	8ee	.	8gg
8G	8c	8e	8g	.	.	.	8c	8cc	.	.	.	8ee	.	8gg
=30	=30	=30	=30	=30	=30	=30	=30	=30	=30	=30	=30	=30	=30	=30
8E	8G	8g	8cc	2r	2r	2r	8c	8cc	2r	2r	2ryy	8gg	2ryy	8ccc
8E	8G	8g	8cc	.	.	.	8c	8cc	.	.	.	8gg	.	8ccc
4C	4E	4cc	4ee	.	.	.	8c	8cc	.	.	.	4ccc	.	4eee
.	.	.	.	.	.	.	8ryy	8r	.	.	.	.	.	.
=31	=31	=31	=31	=31	=31	=31	=31	=31	=31	=31	=31	=31	=31	=31
8F	8F	8a	8dd	2r	2r	2r	2r	2r	2r	2r	2ryy	8aa	2ryy	8ddd
8F	8F	8f	8dd	.	.	.	.	.	.	.	.	8ff	.	8ddd
.	.	16eQ	16ccQ	.	.	.	.	.	.	.	.	16eeQ	.	16cccQ
8G	8G	8d	8b	.	.	.	.	.	.	.	.	8dd	.	8bb
8G	8G	16c	16a	.	.	.	.	.	.	.	.	16cc	.	16aa
.	.	16d	16b	.	.	.	.	.	.	.	.	16dd	.	16bb
=32	=32	=32	=32	=32	=32	=32	=32	=32	=32	=32	=32	=32	=32	=32
8C	8C	8e	8cc	2r	2r	2r	2r	2r	2r	2r	2ryy	8ee	2ryy	8ccc
8C	8C	8e	8cc	.	.	.	.	.	.	.	.	8ee	.	8ccc
8C	8C	8e	8cc	.	.	.	.	.	.	.	.	8ee	.	8ccc
8r	8r	8r	8r	.	.	.	.	.	.	.	.	8r	.	8r
=33|:	=33|:	=33|:	=33|:	=33|:	=33|:	=33|:	=33|:	=33|:	=33|:	=33|:	=33|:	=33|:	=33|:	=33|:
*>B	*>B	*>B	*>B	*>B	*>B	*>B	*>B	*>B	*>B	*>B	*>B	*>B	*>B	*>B
4C	8E'	8c'	4c	4C	4e	4cc	4e	4cc	4C	4C	4cc	4cc	4ccc	4ccc
.	8E'	8c'	.	.	.	.	.	.	.	.	.	.	.	.
4r	8c'	8e'	4r	4r	4ryy	4r	4ryy	4r	4ryy	4r	4ryy	4r	4ryy	4r
.	8c'	8e'	.	.	.	.	.	.	.	.	.	.	.	.
=34	=34	=34	=34	=34	=34	=34	=34	=34	=34	=34	=34	=34	=34	=34
4C	8e'	8g'	4r	2r	2r	2r	2r	2r	2r	2r	2r	2r	2r	2r
.	8e'	8g'	.	.	.	.	.	.	.	.	.	.	.	.
4r	4c	4e	16r	.	.	.	.	.	.	.	.	.	.	.
.	.	.	16gg'	.	.	.	.	.	.	.	.	.	.	.
.	.	.	16ccc'	.	.	.	.	.	.	.	.	.	.	.
.	.	.	16bb'	.	.	.	.	.	.	.	.	.	.	.
=35	=35	=35	=35	=35	=35	=35	=35	=35	=35	=35	=35	=35	=35	=35
4FF	8f	8f	16bbz	2r	2r	2r	2r	2r	2r	2r	2r	2r	2r	2r
.	.	.	16aa	.	.	.	.	.	.	.	.	.	.	.
.	8f	8f	16aa'	.	.	.	.	.	.	.	.	.	.	.
.	.	.	16gg'	.	.	.	.	.	.	.	.	.	.	.
4r	8d	8d	16ggz	.	.	.	.	.	.	.	.	.	.	.
.	.	.	16ff	.	.	.	.	.	.	.	.	.	.	.
.	8d	8d	16ff'	.	.	.	.	.	.	.	.	.	.	.
.	.	.	16ee'	.	.	.	.	.	.	.	.	.	.	.
=36	=36	=36	=36	=36	=36	=36	=36	=36	=36	=36	=36	=36	=36	=36
4GG	8B	8B	16eez	2r	2r	2r	2r	2r	2r	2r	2r	2r	2r	2r
.	.	.	16dd	.	.	.	.	.	.	.	.	.	.	.
.	8B	8B	16dd'	.	.	.	.	.	.	.	.	.	.	.
.	.	.	16cc'	.	.	.	.	.	.	.	.	.	.	.
4r	4G	4G	16b'	.	.	.	.	.	.	.	.	.	.	.
.	.	.	16aa	.	.	.	.	.	.	.	.	.	.	.
.	.	.	16gg	.	.	.	.	.	.	.	.	.	.	.
.	.	.	16ff	.	.	.	.	.	.	.	.	.	.	.
=37	=37	=37	=37	=37	=37	=37	=37	=37	=37	=37	=37	=37	=37	=37
4C	8E	8c	8ee	2r	2r	2r	2r	2r	2r	2r	2r	2r	2r	2r
.	8E	8c	8r	.	.	.	.	.	.	.	.	.	.	.
4r	8c	8e	4r	.	.	.	.	.	.	.	.	.	.	.
.	8c	8e	.	.	.	.	.	.	.	.	.	.	.	.
=38	=38	=38	=38	=38	=38	=38	=38	=38	=38	=38	=38	=38	=38	=38
4C	8e	8g	4r	2r	2r	2r	2r	2r	2r	2r	2r	2r	2ryy	4r
.	8e	8g	.	.	.	.	.	.	.	.	.	.	.	.
4r	4c	4e	16r	.	.	.	.	.	.	.	.	.	.	16r
.	.	.	16g'	.	.	.	.	.	.	.	.	.	.	16gg'
.	.	.	16cc'	.	.	.	.	.	.	.	.	.	.	16ccc'
.	.	.	16ee'	.	.	.	.	.	.	.	.	.	.	16eee'
=39	=39	=39	=39	=39	=39	=39	=39	=39	=39	=39	=39	=39	=39	=39
8AA	8A	8cc	16eez	2r	2r	2r	2r	2r	2r	2r	2r	2r	2ryy	16eeez
.	.	.	16dd	.	.	.	.	.	.	.	.	.	.	16ddd
8r	8A	8cc	16dd'	.	.	.	.	.	.	.	.	.	.	16ddd'
.	.	.	16cc'	.	.	.	.	.	.	.	.	.	.	16ccc'
8D	8d	8f#	16ccz	.	.	.	.	.	.	.	.	.	.	16cccz
.	.	.	16b	.	.	.	.	.	.	.	.	.	.	16bb
8r	8d	8f#	16b'	.	.	.	.	.	.	.	.	.	.	16bb'
.	.	.	16a'	.	.	.	.	.	.	.	.	.	.	16aa'
=40	=40	=40	=40	=40	=40	=40	=40	=40	=40	=40	=40	=40	=40	=40
4GG	4G	4g	16cc	2r	2r	2r	2r	2r	2r	2r	2r	2r	2ryy	16ccc
.	.	.	16b	.	.	.	.	.	.	.	.	.	.	16bb
.	.	.	16dd'	.	.	.	.	.	.	.	.	.	.	16ddd'
.	.	.	16b'	.	.	.	.	.	.	.	.	.	.	16bb'
4r	4r	8G	8g	.	.	.	.	.	.	.	.	.	.	8gg
.	.	8r	8r	.	.	.	.	.	.	.	.	.	.	8r
=41:||:	=41:||:	=41:||:	=41:||:	=41:||:	=41:||:	=41:||:	=41:||:	=41:||:	=41:||:	=41:||:	=41:||:	=41:||:	=41:||:	=41:||:
*>C	*>C	*>C	*>C	*>C	*>C	*>C	*>C	*>C	*>C	*>C	*>C	*>C	*>C	*>C
4BB	8d	8fn	4r	2r	2r	2r	2r	2r	2r	2r	2r	2r	2r	2r
.	16G	16G	.	.	.	.	.	.	.	.	.	.	.	.
.	16r	16r	.	.	.	.	.	.	.	.	.	.	.	.
4C	8c	8e	16r	.	.	.	.	.	.	.	.	.	.	.
.	.	.	16g'	.	.	.	.	.	.	.	.	.	.	.
.	16G	16G	16cc'	.	.	.	.	.	.	.	.	.	.	.
.	16r	16r	16ee'	.	.	.	.	.	.	.	.	.	.	.
=42	=42	=42	=42	=42	=42	=42	=42	=42	=42	=42	=42	=42	=42	=42
4GG	8B'	8d'	16gg	2r	2r	2r	2r	2r	2r	2r	2r	2r	2r	2r
.	.	.	16ff#	.	.	.	.	.	.	.	.	.	.	.
.	8B'	8d'	16gg'	.	.	.	.	.	.	.	.	.	.	.
.	.	.	16ff#'	.	.	.	.	.	.	.	.	.	.	.
4r	16B	16d	16aa	.	.	.	.	.	.	.	.	.	.	.
.	16c	16e	16gg	.	.	.	.	.	.	.	.	.	.	.
.	16d	16f	16ffn	.	.	.	.	.	.	.	.	.	.	.
.	16e	16g	16ee	.	.	.	.	.	.	.	.	.	.	.
=43	=43	=43	=43	=43	=43	=43	=43	=43	=43	=43	=43	=43	=43	=43
4GG	16f	16a	8dd	2r	2r	2r	2r	2r	2r	2r	2r	2r	2r	2r
.	16G	16G	.	.	.	.	.	.	.	.	.	.	.	.
.	16e	16g	8cc	.	.	.	.	.	.	.	.	.	.	.
.	16G	16G	.	.	.	.	.	.	.	.	.	.	.	.
4r	16d	16f	8b	.	.	.	.	.	.	.	.	.	.	.
.	16G	16G	.	.	.	.	.	.	.	.	.	.	.	.
.	16c	16e	8cc	.	.	.	.	.	.	.	.	.	.	.
.	16G	16G	.	.	.	.	.	.	.	.	.	.	.	.
=44	=44	=44	=44	=44	=44	=44	=44	=44	=44	=44	=44	=44	=44	=44
4GG	8B	8d	16gg	2r	2r	2r	2r	2r	2r	2r	2r	2r	2r	2r
.	.	.	16ff#	.	.	.	.	.	.	.	.	.	.	.
.	8B	8d	16gg'	.	.	.	.	.	.	.	.	.	.	.
.	.	.	16ff#'	.	.	.	.	.	.	.	.	.	.	.
4r	4B	8.d	16gg	.	.	.	.	.	.	.	.	.	.	.
.	.	.	16ffn	.	.	.	.	.	.	.	.	.	.	.
.	.	.	16ee'	.	.	.	.	.	.	.	.	.	.	.
.	.	16d#	16dd#'	.	.	.	.	.	.	.	.	.	.	.
=45	=45	=45	=45	=45	=45	=45	=45	=45	=45	=45	=45	=45	=45	=45
4C	8c	8e	16ee	2r	2r	2r	2r	2r	2r	2r	2r	2r	2r	2r
.	.	.	16gg	.	.	.	.	.	.	.	.	.	.	.
.	8c	8e	16ccc'	.	.	.	.	.	.	.	.	.	.	.
.	.	.	16bb'	.	.	.	.	.	.	.	.	.	.	.
4r	8e	8g	16ccc	.	.	.	.	.	.	.	.	.	.	.
.	.	.	16gg	.	.	.	.	.	.	.	.	.	.	.
.	8e	8g	16ccc'	.	.	.	.	.	.	.	.	.	.	.
.	.	.	16bb'	.	.	.	.	.	.	.	.	.	.	.
=46	=46	=46	=46	=46	=46	=46	=46	=46	=46	=46	=46	=46	=46	=46
4C	8g	8cc	16ccc	2r	2r	2r	2r	2r	2r	2r	2r	2r	2r	2r
.	.	.	16gg	.	.	.	.	.	.	.	.	.	.	.
.	8g	8cc	16eee'	.	.	.	.	.	.	.	.	.	.	.
.	.	.	16ddd'	.	.	.	.	.	.	.	.	.	.	.
4r	4cc	4ee	16ccc'	.	.	.	.	.	.	.	.	.	.	.
.	.	.	16bb'	.	.	.	.	.	.	.	.	.	.	.
.	.	.	16aa'	.	.	.	.	.	.	.	.	.	.	.
.	.	.	16gg'	.	.	.	.	.	.	.	.	.	.	.
=47	=47	=47	=47	=47	=47	=47	=47	=47	=47	=47	=47	=47	=47	=47
8F	8a'	8dd'	8ff'	2r	2r	2r	2r	2r	2r	2r	2r	2r	2r	2r
8r	8a'	8dd'	8ff'	.	.	.	.	.	.	.	.	.	.	.
.	.	16ccQ	16eeQ	.	.	.	.	.	.	.	.	.	.	.
8G	8f'	8b	8dd	.	.	.	.	.	.	.	.	.	.	.
8r	8f'	16a	16cc	.	.	.	.	.	.	.	.	.	.	.
.	.	16b	16dd	.	.	.	.	.	.	.	.	.	.	.
=48	=48	=48	=48	=48	=48	=48	=48	=48	=48	=48	=48	=48	=48	=48
8C'	8e'	8cc'	8cc'	2r	2r	2r	2r	2r	2r	2r	2r	2r	2r	2r
8C'	8e'	8cc'	8cc'	.	.	.	.	.	.	.	.	.	.	.
8C'	8e'	8cc'	8cc'	.	.	.	.	.	.	.	.	.	.	.
8r	8r	8r	8r	.	.	.	.	.	.	.	.	.	.	.
=49:||:	=49:||:	=49:||:	=49:||:	=49:||:	=49:||:	=49:||:	=49:||:	=49:||:	=49:||:	=49:||:	=49:||:	=49:||:	=49:||:	=49:||:
*>D	*>D	*>D	*>D	*>D	*>D	*>D	*>D	*>D	*>D	*>D	*>D	*>D	*>D	*>D
*k[b-e-a-]	*k[b-e-a-]	*k[b-e-a-]	*k[b-e-a-]	*	*	*	*	*	*k[b-e-a-]	*k[b-e-a-]	*k[b-e-a-]	*k[b-e-a-]	*k[b-e-a-]	*k[b-e-a-]
8C'	8c'	8c'	8c'	2r	2r	2r	2r	2r	8C'	8C'	8cc'	8cc'	8cc'	8cc'
8C'	8c'	8c'	8c'	.	.	.	.	.	8C'	8C'	8cc'	8cc'	8cc'	8cc'
8E-'	8e-'	8e-'	8e-'	.	.	.	.	.	8E-'	8E-'	8ee-'	8ee-'	8ee-'	8ee-'
8E-'	8e-'	8e-'	8e-'	.	.	.	.	.	8E-'	8E-'	8ee-'	8ee-'	8ee-'	8ee-'
=50	=50	=50	=50	=50	=50	=50	=50	=50	=50	=50	=50	=50	=50	=50
8G'	8g'	8g'	8g'	2r	2r	2r	2r	2r	8G'	8G'	8gg'	8gg'	8gg'	8gg'
8G'	8g'	8g'	8g'	.	.	.	.	.	8G'	8G'	8gg'	8gg'	8gg'	8gg'
4E-	4e-	4e-	4e-	.	.	.	.	.	4E-	4E-	4ee-	4ee-	4ee-	4ee-
=51	=51	=51	=51	=51	=51	=51	=51	=51	=51	=51	=51	=51	=51	=51
8F'	8f'	8f'	8f'	2r	2r	2r	2r	2r	8F'	8F'	8ff'	8ff'	8ff'	8ff'
8F'	8f'	8f'	8f'	.	.	.	.	.	8F'	8F'	8ff'	8ff'	8ff'	8ff'
8D'	8d'	8d'	8d'	.	.	.	.	.	8D'	8D'	8dd'	8dd'	8dd'	8dd'
8D'	8d'	8d'	8d'	.	.	.	.	.	8D'	8D'	8dd'	8dd'	8dd'	8dd'
=52	=52	=52	=52	=52	=52	=52	=52	=52	=52	=52	=52	=52	=52	=52
8BBn'	8Bn'	8Bn'	8Bn'	2r	2r	2r	2r	2r	8BBn'	8BBn'	8bn	8bn	8bn'	8bn'
8BB'	8B'	8B'	8B'	.	.	.	.	.	8BB'	8BB'	8b	8b	8b'	8b'
4GG	4G	4G	4G	.	.	.	.	.	4GG	4GG	4g	4g	4g	4g
=53	=53	=53	=53	=53	=53	=53	=53	=53	=53	=53	=53	=53	=53	=53
4AA-X	16A-'	16c'	8a-X'	2r	2r	2r	2r	2r	4AA-X	4AA-X	2r	2r	2r	2r
.	16c'	16e-'	.	.	.	.	.	.	.	.	.	.	.	.
.	16A-'	16c'	8a-'	.	.	.	.	.	.	.	.	.	.	.
.	16c'	16e-'	.	.	.	.	.	.	.	.	.	.	.	.
4r	16A-'	16c'	8cc'	.	.	.	.	.	4r	4r	.	.	.	.
.	16c'	16e-'	.	.	.	.	.	.	.	.	.	.	.	.
.	16A-'	16c'	8cc'	.	.	.	.	.	.	.	.	.	.	.
.	16c'	16e-'	.	.	.	.	.	.	.	.	.	.	.	.
=54	=54	=54	=54	=54	=54	=54	=54	=54	=54	=54	=54	=54	=54	=54
4AA-	16A-	16c	8ee-'	2r	2r	2r	2r	2r	4AA-	4AA-	2r	2r	2r	2r
.	16c	16e-	.	.	.	.	.	.	.	.	.	.	.	.
.	16A-	16c	8ee-'	.	.	.	.	.	.	.	.	.	.	.
.	16c	16e-	.	.	.	.	.	.	.	.	.	.	.	.
4r	16A-	16c	4aa-	.	.	.	.	.	4r	4r	.	.	.	.
.	16c	16e-	.	.	.	.	.	.	.	.	.	.	.	.
.	16A-	16c	.	.	.	.	.	.	.	.	.	.	.	.
.	16c	16e-	.	.	.	.	.	.	.	.	.	.	.	.
=55	=55	=55	=55	=55	=55	=55	=55	=55	=55	=55	=55	=55	=55	=55
4BB-	8F	8a-	8dd	2r	2r	2r	2r	2r	4BB-	4BB-	2r	2r	2r	2r
.	8F	8a-	8dd	.	.	.	.	.	.	.	.	.	.	.
4r	16F	16a-	16dd	.	.	.	.	.	4r	4r	.	.	.	.
.	16E-	16g	16ee-	.	.	.	.	.	.	.	.	.	.	.
.	16D	16f	16ff	.	.	.	.	.	.	.	.	.	.	.
.	16F	16a-	16dd	.	.	.	.	.	.	.	.	.	.	.
=56	=56	=56	=56	=56	=56	=56	=56	=56	=56	=56	=56	=56	=56	=56
4E-	8E-	8g	8ee-	2r	2r	2r	2r	2r	4E-	4E-	2r	2r	2r	2r
.	8E-	8g	8ee-	.	.	.	.	.	.	.	.	.	.	.
4r	8E-	8g	8ee-	.	.	.	.	.	4r	4r	.	.	.	.
.	8r	8r	8r	.	.	.	.	.	.	.	.	.	.	.
=57:|	=57:|	=57:|	=57:|	=57:|	=57:|	=57:|	=57:|	=57:|	=57:|	=57:|	=57:|	=57:|	=57:|	=57:|
*>E	*>E	*>E	*>E	*>E	*>E	*>E	*>E	*>E	*>E	*>E	*>E	*>E	*>E	*>E
8E-'	4G 4e-	16ee-'	4G 4e-	2r	2r	2r	2r	2r	4EE-	4EE-	2ee-	2gg	[2bb-	[2bb-
.	.	32dd	.	.	.	.	.	.	.	.	.	.	.	.
.	.	32cc	.	.	.	.	.	.	.	.	.	.	.	.
8E-'	.	32b-X	.	.	.	.	.	.	.	.	.	.	.	.
.	.	32a-X	.	.	.	.	.	.	.	.	.	.	.	.
.	.	32g	.	.	.	.	.	.	.	.	.	.	.	.
.	.	32f	.	.	.	.	.	.	.	.	.	.	.	.
8G'	8B-	16e-'	4r	.	.	.	.	.	4r	4r	.	.	.	.
.	.	32ee-	.	.	.	.	.	.	.	.	.	.	.	.
.	.	32ff	.	.	.	.	.	.	.	.	.	.	.	.
8G'	8B-	16gg	.	.	.	.	.	.	.	.	.	.	.	.
.	.	16ee-'	.	.	.	.	.	.	.	.	.	.	.	.
=58	=58	=58	=58	=58	=58	=58	=58	=58	=58	=58	=58	=58	=58	=58
4B-	8B-'	4b-	16bb-'	2r	2r	2r	2r	2r	8BB-	8BB-	2dd	2ff	2bb-]	2bb-]
.	.	.	32aan	.	.	.	.	.	.	.	.	.	.	.
.	.	.	32gg	.	.	.	.	.	.	.	.	.	.	.
.	8B-'	.	32ff	.	.	.	.	.	8BB-	8BB-	.	.	.	.
.	.	.	32ee-	.	.	.	.	.	.	.	.	.	.	.
.	.	.	32dd	.	.	.	.	.	.	.	.	.	.	.
.	.	.	32cc	.	.	.	.	.	.	.	.	.	.	.
4r	8d'	4r	16b-	.	.	.	.	.	8D	8D	.	.	.	.
.	.	.	32b-	.	.	.	.	.	.	.	.	.	.	.
.	.	.	32cc	.	.	.	.	.	.	.	.	.	.	.
.	8d'	.	16dd	.	.	.	.	.	8D	8D	.	.	.	.
.	.	.	16b-'	.	.	.	.	.	.	.	.	.	.	.
=59	=59	=59	=59	=59	=59	=59	=59	=59	=59	=59	=59	=59	=59	=59
8F'	4f	16ff'	4f	2r	2r	2r	2r	2r	4F	4F	2ff	2aa-	4aa-	4aa-
.	.	32ee-X	.	.	.	.	.	.	.	.	.	.	.	.
.	.	32dd-	.	.	.	.	.	.	.	.	.	.	.	.
8F'	.	32cc	.	.	.	.	.	.	.	.	.	.	.	.
.	.	32b-	.	.	.	.	.	.	.	.	.	.	.	.
.	.	32a-	.	.	.	.	.	.	.	.	.	.	.	.
.	.	32g	.	.	.	.	.	.	.	.	.	.	.	.
8A-'	4r	16f'	4r	.	.	.	.	.	4r	4r	.	.	4ccc	4ccc
.	.	32ff	.	.	.	.	.	.	.	.	.	.	.	.
.	.	32gg	.	.	.	.	.	.	.	.	.	.	.	.
8A-'	.	16aa-	.	.	.	.	.	.	.	.	.	.	.	.
.	.	16ff'	.	.	.	.	.	.	.	.	.	.	.	.
=60	=60	=60	=60	=60	=60	=60	=60	=60	=60	=60	=60	=60	=60	=60
4c	8c'	4cc	16ccc	2r	2r	2r	2r	2r	8C'	8C'	2een	2gg	2ccc	2ccc
.	.	.	32bb-X	.	.	.	.	.	.	.	.	.	.	.
.	.	.	32aa-X	.	.	.	.	.	.	.	.	.	.	.
.	8c'	.	32gg	.	.	.	.	.	8C'	8C'	.	.	.	.
.	.	.	32ff	.	.	.	.	.	.	.	.	.	.	.
.	.	.	32een	.	.	.	.	.	.	.	.	.	.	.
.	.	.	32dd	.	.	.	.	.	.	.	.	.	.	.
8r	8en'	4r	16cc'	.	.	.	.	.	8En'	8En'	.	.	.	.
.	.	.	32gg	.	.	.	.	.	.	.	.	.	.	.
.	.	.	32aa-	.	.	.	.	.	.	.	.	.	.	.
8En	8e'	.	16bb-	.	.	.	.	.	8E'	8E'	.	.	.	.
.	.	.	16gg'	.	.	.	.	.	.	.	.	.	.	.
=61	=61	=61	=61	=61	=61	=61	=61	=61	=61	=61	=61	=61	=61	=61
8F	8f	16aa-'	16aa-'	2r	2r	2r	2r	2r	8F	8F	2cc	4aa-	4ccc	4ccc
.	.	32ff	32ff	.	.	.	.	.	.	.	.	.	.	.
.	.	32gg	32gg	.	.	.	.	.	.	.	.	.	.	.
8c	4cc	16aa-	16aa-	.	.	.	.	.	8c	8c	.	.	.	.
.	.	16ff'	16ff'	.	.	.	.	.	.	.	.	.	.	.
8G	.	16een'	16een'	.	.	.	.	.	8G	8G	.	4gg	4een	4een
.	.	32cc	32cc	.	.	.	.	.	.	.	.	.	.	.
.	.	32dd	32dd	.	.	.	.	.	.	.	.	.	.	.
8c	[8cc	16ee	16ee	.	.	.	.	.	8c	8c	.	.	.	.
.	.	16cc'	16cc'	.	.	.	.	.	.	.	.	.	.	.
=62	=62	=62	=62	=62	=62	=62	=62	=62	=62	=62	=62	=62	=62	=62
8A-	8cc]	16ff'	16ff'	2r	2r	2r	2r	2r	8A-	8A-	2cc	4ff	4ff	4ff
.	.	32ff	32ff	.	.	.	.	.	.	.	.	.	.	.
.	.	32gg	32gg	.	.	.	.	.	.	.	.	.	.	.
8c	4cc	16aa-	16aa-	.	.	.	.	.	8c	8c	.	.	.	.
.	.	16ff'	16ff'	.	.	.	.	.	.	.	.	.	.	.
8En	.	16gg'	16gg'	.	.	.	.	.	8En	8En	.	4gg	4bb-	4bb-
.	.	32gg	32gg	.	.	.	.	.	.	.	.	.	.	.
.	.	32aa-	32aa-	.	.	.	.	.	.	.	.	.	.	.
8c	[8cc	16bb-	16bb-	.	.	.	.	.	8c	8c	.	.	.	.
.	.	16gg'	16gg'	.	.	.	.	.	.	.	.	.	.	.
=63	=63	=63	=63	=63	=63	=63	=63	=63	=63	=63	=63	=63	=63	=63
8F	8cc]	16aa-'	16aa-'	2r	2r	2r	2r	2r	8F	8F	2cc	4aa-	4aa-	4aa-
.	.	32cc	32cc	.	.	.	.	.	.	.	.	.	.	.
.	.	32bn	32bn	.	.	.	.	.	.	.	.	.	.	.
8F	4c	16cc	16cc	.	.	.	.	.	8F	8F	.	.	.	.
.	.	16aa-'	16aa-'	.	.	.	.	.	.	.	.	.	.	.
8G	.	16gg'	16gg'	.	.	.	.	.	8G	8G	.	4gg	4gg	4gg
.	.	32cc	32cc	.	.	.	.	.	.	.	.	.	.	.
.	.	32b	32b	.	.	.	.	.	.	.	.	.	.	.
8G	[8c	16cc	16cc	.	.	.	.	.	8G	8G	.	.	.	.
.	.	16gg'	16gg'	.	.	.	.	.	.	.	.	.	.	.
=64	=64	=64	=64	=64	=64	=64	=64	=64	=64	=64	=64	=64	=64	=64
8A-	8c]	16ff#'	16ff#'	2r	2r	2r	2r	2r	8A-	8A-	8cc	2ff#	2ff#	2ff#
.	.	32cc	32cc	.	.	.	.	.	.	.	.	.	.	.
.	.	32bn	32bn	.	.	.	.	.	.	.	.	.	.	.
8A-	4f#	16cc	16cc	.	.	.	.	.	8A-	8A-	4ee-	.	.	.
.	.	16dd'	16dd'	.	.	.	.	.	.	.	.	.	.	.
8r	.	16.ee-	16.ee-	.	.	.	.	.	8r	8r	.	.	.	.
.	.	32ee-	32ee-	.	.	.	.	.	.	.	.	.	.	.
8A-	8f#	16.dd	16.dd	.	.	.	.	.	8A-	8A-	8cc	.	.	.
.	.	32cc	32cc	.	.	.	.	.	.	.	.	.	.	.
=65	=65	=65	=65	=65	=65	=65	=65	=65	=65	=65	=65	=65	=65	=65
16G'	16g'	16gg'	16gg'	4GG	4g	4g	2r	2r	16G'	16G'	4.bn	4.gg	4.gg	4.gg
32Fn	32fn	32ffn	32ffn	.	.	.	.	.	32Fn	32Fn	.	.	.	.
32E-X	32e-X	32ee-X	32ee-X	.	.	.	.	.	32E-X	32E-X	.	.	.	.
32D	32d	32dd	32dd	.	.	.	.	.	32D	32D	.	.	.	.
32C	32c	32cc	32cc	.	.	.	.	.	32C	32C	.	.	.	.
32BBn	32Bn	32bn	32bn	.	.	.	.	.	32BBn	32BBn	.	.	.	.
32AAn	32An	32an	32an	.	.	.	.	.	32AAn	32AAn	.	.	.	.
8GG'	8G'	16g'	16g'	8r	8ryy	8r	.	.	8GG	8GG	.	.	.	.
.	.	32dd	32gg	.	.	.	.	.	.	.	.	.	.	.
.	.	32ee-	32aan	.	.	.	.	.	.	.	.	.	.	.
16.GG	16.g	16ff	16bbn	8GG	8g	8g	.	.	16.GG	16.GG	8dd	8bbn	8bbn	8bbn
.	.	16dd'	16gg'	.	.	.	.	.	.	.	.	.	.	.
32GG	32g	.	.	.	.	.	.	.	32GG	32GG	.	.	.	.
=66	=66	=66	=66	=66	=66	=66	=66	=66	=66	=66	=66	=66	=66	=66
16.GG	16.g	16.ee-	16.ccc	8GG	8cc	8cc	2r	2r	16.GG	16.GG	8ee-	8ccc	8ccc	8ccc
32GG	32g	32ee-	32ccc	.	.	.	.	.	32GG	32GG	.	.	.	.
16.GG	16.f	16.bn	16.ddd	16.GG	8g	8g	.	.	16.GG	16.GG	8bn	8ddd	8ddd	8ddd
32GG	32f	32b	32ddd	32GG	.	.	.	.	32GG	32GG	.	.	.	.
16.GG	16.e-	16.cc	16.eee-	8GG	8cc	8cc	.	.	16.GG	16.GG	8cc	8ccc	8eee-	8eee-
32GG	32e-	32cc	32eee-	.	.	.	.	.	32GG	32GG	.	.	.	.
16.GG	16.e-	16.cc	16.ff#	8GG	8cc	8cc	.	.	16.GG	16.GG	8cc	8ff#	8ee-	8ee-
32GG	32c	32cc	32ff#	.	.	.	.	.	32GG	32GG	.	.	.	.
=67	=67	=67	=67	=67	=67	=67	=67	=67	=67	=67	=67	=67	=67	=67
16G'	16g'	16gg'	16gg'	4GG	4g	4g	2r	2r	16G	16G	4.bn	4.gg	8dd	8dd
32Fn	32fn	32ffn	32ffn	.	.	.	.	.	32Fn	32Fn	.	.	.	.
32E-	32e-	32ee-	32ee-	.	.	.	.	.	32E-	32E-	.	.	.	.
32D	32d	32dd	32dd	.	.	.	.	.	32D	32D	.	.	4bn	4bn
32C	32c	32cc	32cc	.	.	.	.	.	32C	32C	.	.	.	.
32BBn	32Bn	32bn	32bn	.	.	.	.	.	32BBn	32BBn	.	.	.	.
32AAn	32An	32an	32an	.	.	.	.	.	32AAn	32AAn	.	.	.	.
16GG'	16G'	16g'	16g'	8r	8ryy	8r	.	.	16GG'	16GG'	.	.	.	.
32Bn	32bn	32bn	32bn	.	.	.	.	.	32Bn	32Bn	.	.	.	.
32c	32cc	32cc	32cc	.	.	.	.	.	32c	32c	.	.	.	.
16d	16dd	16dd	16dd	8GG	8g	8g	.	.	16d	16d	8g	8bbn	8ff	8ff
16B'	16b'	16b'	16b'	.	.	.	.	.	16B'	16B'	.	.	.	.
=68	=68	=68	=68	=68	=68	=68	=68	=68	=68	=68	=68	=68	=68	=68
16.c	16.cc	16.cc	16.cc	8GG	8cc	8cc	2r	2r	16.c	16.c	8cc	8ccc	8ee-	8ee-
32c	32cc	32cc	32cc	.	.	.	.	.	32c	32c	.	.	.	.
16.G	16.g	16.g	16.g	16.GG	8g	8g	.	.	16.G	16.G	8g	8gg	8gg	8gg
32G	32g	32g	32g	32GG	.	.	.	.	32G	32G	.	.	.	.
16.E-	16.e-	16.e-	16.e-	8GG	8cc	8cc	.	.	16.E-	16.E-	8e-	8ee-	8ee-	8ee-
32E-	32e-	32e-	32e-	.	.	.	.	.	32E-	32E-	.	.	.	.
16.C	16.c	16.c	16.c	8GG	8cc	8cc	.	.	16.C	16.C	8c	8cc	8cc	8cc
32C	32c	32c	32c	.	.	.	.	.	32C	32C	.	.	.	.
=69	=69	=69	=69	=69	=69	=69	=69	=69	=69	=69	=69	=69	=69	=69
8GG	8G	16G'	16G'	4GG	4g	4g	2r	2r	[4GG	[4GG	[4g	[4g	[4g	[4g
.	.	32An	32An	.	.	.	.	.	.	.	.	.	.	.
.	.	32Bn	32Bn	.	.	.	.	.	.	.	.	.	.	.
8r	8r	32c	32c	.	.	.	.	.	.	.	.	.	.	.
.	.	32d	32d	.	.	.	.	.	.	.	.	.	.	.
.	.	32en	32en	.	.	.	.	.	.	.	.	.	.	.
.	.	32f#	32f#	.	.	.	.	.	.	.	.	.	.	.
16GG'	16G	16g'	16g'	8GG	8g	8g	.	.	16GG']	16GG']	16g']	16g']	16g']	16g']
32AAn	32An	32an	32an	.	.	.	.	.	32AAn	32AAn	32an	32an	32an	32an
32BBn	32Bn	32bn	32bn	.	.	.	.	.	32BBn	32BBn	32bn	32bn	32bn	32bn
32C	32c	32cc	32cc	8GG	8g	8g	.	.	32C	32C	32cc	32cc	32cc	32cc
32D	32d	32dd	32dd	.	.	.	.	.	32D	32D	32dd	32dd	32dd	32dd
32En	32en	32een	32een	.	.	.	.	.	32En	32En	32een	32een	32een	32een
32F#	32f#	32ff#X	32ff#X	.	.	.	.	.	32F#	32F#	32ff#	32ff#	32ff#	32ff#
=70	=70	=70	=70	=70	=70	=70	=70	=70	=70	=70	=70	=70	=70	=70
4G	4g	4gg	4.gg	4GG	4g	4g	2r	2r	4G	4G	4gg	4gg	4gg	4gg
4r	4r	4r	.	4r	4ryy	4r	.	.	4r	4r	4r	4r	4r	4r
.	.	.	8bbn	.	.	.	.	.	.	.	.	.	.	.
=71	=71	=71	=71	=71	=71	=71	=71	=71	=71	=71	=71	=71	=71	=71
2r	2r	2r	8ddd	2r	2r	2r	2r	2r	2r	2r	2r	2r	2r	2r
.	.	.	8bbn	.	.	.	.	.	.	.	.	.	.	.
.	.	.	8gg	.	.	.	.	.	.	.	.	.	.	.
.	.	.	8ff#	.	.	.	.	.	.	.	.	.	.	.
=72	=72	=72	=72	=72	=72	=72	=72	=72	=72	=72	=72	=72	=72	=72
2r	2r	2r	[4ffn	2r	2r	2r	2r	2r	2r	2r	2r	2r	2r	2r
.	.	.	16ff]	.	.	.	.	.	.	.	.	.	.	.
.	.	.	16een	.	.	.	.	.	.	.	.	.	.	.
.	.	.	16gg	.	.	.	.	.	.	.	.	.	.	.
.	.	.	16ff	.	.	.	.	.	.	.	.	.	.	.
=73	=73	=73	=73	=73	=73	=73	=73	=73	=73	=73	=73	=73	=73	=73
2r	2r	2r	8aan'	2r	2r	2r	2r	2r	2r	2r	2r	2r	2r	2r
.	.	.	8aa'	.	.	.	.	.	.	.	.	.	.	.
.	.	.	8ff'	.	.	.	.	.	.	.	.	.	.	.
.	.	.	8ff'	.	.	.	.	.	.	.	.	.	.	.
=74	=74	=74	=74	=74	=74	=74	=74	=74	=74	=74	=74	=74	=74	=74
2r	2r	2r	8dd'	2r	2r	2r	2r	2r	2r	2r	2r	2r	2r	2r
.	.	.	8dd'	.	.	.	.	.	.	.	.	.	.	.
.	.	.	8bn'	.	.	.	.	.	.	.	.	.	.	.
.	.	.	8b'	.	.	.	.	.	.	.	.	.	.	.
=75||	=75||	=75||	=75||	=75||	=75||	=75||	=75||	=75||	=75||	=75||	=75||	=75||	=75||	=75||
*k[]	*k[]	*k[]	*k[]	*	*	*	*	*	*k[]	*k[]	*	*k[]	*k[]	*k[]
4C	16c'	16c'	16e'	2r	2r	2r	2r	2r	4C	4C	2ryy	16cc'	2r	2r
.	16e'	16e'	16g'	.	.	.	.	.	.	.	.	16cc'	.	.
.	16c'	16c'	16e'	.	.	.	.	.	.	.	.	16cc'	.	.
.	16e'	16e'	16g'	.	.	.	.	.	.	.	.	16cc'	.	.
4r	16c'	16c'	16e'	.	.	.	.	.	4r	4r	.	16ee'	.	.
.	16e'	16e'	16g'	.	.	.	.	.	.	.	.	16ee'	.	.
.	16c'	16c'	16e'	.	.	.	.	.	.	.	.	16ee'	.	.
.	16e'	16e'	16g'	.	.	.	.	.	.	.	.	16ee'	.	.
=76	=76	=76	=76	=76	=76	=76	=76	=76	=76	=76	=76	=76	=76	=76
4C	16c	16c	16e	2r	2r	2r	2r	2r	4C	4C	2ryy	16gg'	2r	2r
.	16e	16e	16g	.	.	.	.	.	.	.	.	16gg'	.	.
.	16c	16c	16e	.	.	.	.	.	.	.	.	16gg'	.	.
.	16e	16e	16g	.	.	.	.	.	.	.	.	16gg'	.	.
4r	16c	16c	16e	.	.	.	.	.	4r	4r	.	4ee	.	.
.	16e	16e	16g	.	.	.	.	.	.	.	.	.	.	.
.	16c	16c	16e	.	.	.	.	.	.	.	.	.	.	.
.	16e	16e	16g	.	.	.	.	.	.	.	.	.	.	.
=77	=77	=77	=77	=77	=77	=77	=77	=77	=77	=77	=77	=77	=77	=77
4F	16F	16A	16A	2r	2r	2r	2r	2r	4F	4F	2ryy	16ff'	2r	2r
.	16A	16d	16d	.	.	.	.	.	.	.	.	16ff'	.	.
.	16F	16A	16A	.	.	.	.	.	.	.	.	16ff'	.	.
.	16A	16d	16d	.	.	.	.	.	.	.	.	16ff'	.	.
4r	16F	16A	16A	.	.	.	.	.	4r	4r	.	16dd'	.	.
.	16A	16d	16d	.	.	.	.	.	.	.	.	16dd'	.	.
.	16F	16A	16A	.	.	.	.	.	.	.	.	16dd'	.	.
.	16A	16d	16d	.	.	.	.	.	.	.	.	16dd'	.	.
=78	=78	=78	=78	=78	=78	=78	=78	=78	=78	=78	=78	=78	=78	=78
4G	16G	16G	16B	2r	2r	2r	2r	2r	4G	4G	2ryy	16b'	2r	2r
.	16B	16B	16d	.	.	.	.	.	.	.	.	16b'	.	.
.	16G	16G	16B	.	.	.	.	.	.	.	.	16b'	.	.
.	16B	16B	16d	.	.	.	.	.	.	.	.	16b'	.	.
4r	16G	16G	16B	.	.	.	.	.	4r	4r	.	4g	.	.
.	16d	16d	16f	.	.	.	.	.	.	.	.	.	.	.
.	16B	16B	16d	.	.	.	.	.	.	.	.	.	.	.
.	16d	16d	16f	.	.	.	.	.	.	.	.	.	.	.
=79	=79	=79	=79	=79	=79	=79	=79	=79	=79	=79	=79	=79	=79	=79
4C	16c	16c	16e	2r	2r	2r	2r	2r	4C	4C	2ryy	16cc'	2r	2r
.	16e	16e	16g	.	.	.	.	.	.	.	.	16cc'	.	.
.	16c	16c	16e	.	.	.	.	.	.	.	.	16cc'	.	.
.	16e	16e	16g	.	.	.	.	.	.	.	.	16cc'	.	.
4r	16c	16c	16e	.	.	.	.	.	4r	4r	.	16ee'	.	.
.	16e	16e	16g	.	.	.	.	.	.	.	.	16ee'	.	.
.	16c	16c	16e	.	.	.	.	.	.	.	.	16ee'	.	.
.	16e	16e	16g	.	.	.	.	.	.	.	.	16ee'	.	.
=80	=80	=80	=80	=80	=80	=80	=80	=80	=80	=80	=80	=80	=80	=80
4C	16c	16c	16e	2r	2r	2r	2r	2r	4C	4C	2ryy	16gg'	2r	2r
.	16e	16e	16g	.	.	.	.	.	.	.	.	16gg'	.	.
.	16c	16c	16e	.	.	.	.	.	.	.	.	16gg'	.	.
.	16e	16e	16g	.	.	.	.	.	.	.	.	16gg'	.	.
4r	16c	16c	16e	.	.	.	.	.	4r	4r	.	4ee	.	.
.	16e	16e	16g	.	.	.	.	.	.	.	.	.	.	.
.	16c	16c	16e	.	.	.	.	.	.	.	.	.	.	.
.	16e	16e	16g	.	.	.	.	.	.	.	.	.	.	.
=81	=81	=81	=81	=81	=81	=81	=81	=81	=81	=81	=81	=81	=81	=81
8AA	16c	16c	16e	2r	2r	2r	2r	2r	8AA	8AA	2ryy	16ccc'	2r	2r
.	16e	16e	16a	.	.	.	.	.	.	.	.	16ccc'	.	.
8r	16c	16c	16e	.	.	.	.	.	8r	8r	.	16ccc'	.	.
.	16e	16e	16a	.	.	.	.	.	.	.	.	16ccc'	.	.
8D	16D	16A	16c	.	.	.	.	.	8D	8D	.	16ff#'	.	.
.	16d	16c	16f#	.	.	.	.	.	.	.	.	16ff#'	.	.
8r	16D	16A	16c	.	.	.	.	.	8r	8r	.	16ff#'	.	.
.	16d	16c	16f#	.	.	.	.	.	.	.	.	16ff#'	.	.
=82	=82	=82	=82	=82	=82	=82	=82	=82	=82	=82	=82	=82	=82	=82
4GG	16G	16B	16B	2r	2r	2r	2r	2r	4GG	4GG	2ryy	4gg	2r	2r
.	16B	16d	16g	.	.	.	.	.	.	.	.	.	.	.
.	16G	16B	16B	.	.	.	.	.	.	.	.	.	.	.
.	16B	16d	16g	.	.	.	.	.	.	.	.	.	.	.
4r	8G	8B	8B	.	.	.	.	.	4r	4r	.	8g	.	.
.	8r	8r	8r	.	.	.	.	.	.	.	.	8r	.	.
=83	=83	=83	=83	=83	=83	=83	=83	=83	=83	=83	=83	=83	=83	=83
2r	2r	8c'	8c'	2r	2r	2r	2r	2r	2r	2r	2ryy	4gg	2ryy	4eee
.	.	8c'	8c'	.	.	.	.	.	.	.	.	.	.	.
.	.	8e'	8e'	.	.	.	.	.	.	.	.	4ee	.	4ccc
.	.	8e'	8e'	.	.	.	.	.	.	.	.	.	.	.
=84	=84	=84	=84	=84	=84	=84	=84	=84	=84	=84	=84	=84	=84	=84
2r	2r	8g'	8g'	2r	2r	2r	2r	2r	2r	2r	2ryy	8.dd	2ryy	8.bb
.	.	8g'	8g'	.	.	.	.	.	.	.	.	.	.	.
.	.	.	.	.	.	.	.	.	.	.	.	32ee	.	32ccc
.	.	.	.	.	.	.	.	.	.	.	.	32ff	.	32ddd
.	.	4e	4e	.	.	.	.	.	.	.	.	8ee	.	8ccc
.	.	.	.	.	.	.	.	.	.	.	.	8gg	.	8bb
=85	=85	=85	=85	=85	=85	=85	=85	=85	=85	=85	=85	=85	=85	=85
2r	2r	8f	8f	2r	2r	2r	2r	2r	2r	2r	2ryy	4gg	2ryy	[4aa
.	.	8f	8f	.	.	.	.	.	.	.	.	.	.	.
.	.	8d	8d	.	.	.	.	.	.	.	.	4ff	.	16aa]
.	.	.	.	.	.	.	.	.	.	.	.	.	.	16bb
.	.	8d	8d	.	.	.	.	.	.	.	.	.	.	16ccc
.	.	.	.	.	.	.	.	.	.	.	.	.	.	16ddd
=86	=86	=86	=86	=86	=86	=86	=86	=86	=86	=86	=86	=86	=86	=86
2r	2r	8B	8B	2r	2r	2r	2r	2r	2r	2r	2ryy	8.ffT	2ryy	4.gg
.	.	8B	8B	.	.	.	.	.	.	.	.	.	.	.
.	.	.	.	.	.	.	.	.	.	.	.	32ee	.	.
.	.	.	.	.	.	.	.	.	.	.	.	32ff	.	.
.	.	4G	4G	.	.	.	.	.	.	.	.	8gg	.	.
.	.	.	.	.	.	.	.	.	.	.	.	.	.	8bbq
.	.	.	.	.	.	.	.	.	.	.	.	8ff	.	16aa
.	.	.	.	.	.	.	.	.	.	.	.	.	.	16gg
=87	=87	=87	=87	=87	=87	=87	=87	=87	=87	=87	=87	=87	=87	=87
2r	2r	8c	8c	2r	2r	2r	2r	2r	2r	2r	2ryy	4ee	2ryy	4gg
.	.	8c	8c	.	.	.	.	.	.	.	.	.	.	.
.	.	8e	8e	.	.	.	.	.	.	.	.	4cc	.	4ee
.	.	8e	8e	.	.	.	.	.	.	.	.	.	.	.
=88	=88	=88	=88	=88	=88	=88	=88	=88	=88	=88	=88	=88	=88	=88
2r	2r	8g	8g	2r	2r	2r	2r	2r	2r	2r	2ryy	4bz	2ryy	4dd#z
.	.	8g	8g	.	.	.	.	.	.	.	.	.	.	.
.	.	4e	4e	.	.	.	.	.	.	.	.	4cc	.	4ee
=89	=89	=89	=89	=89	=89	=89	=89	=89	=89	=89	=89	=89	=89	=89
2r	2r	8cc	8cc	2r	2r	2r	2r	2r	2r	2r	2ryy	4ee	2ryy	4aa
.	.	8cc	8cc	.	.	.	.	.	.	.	.	.	.	.
.	.	8f#	8f#	.	.	.	.	.	.	.	.	4cc	.	8.ddd
.	.	8f#	8f#	.	.	.	.	.	.	.	.	.	.	.
.	.	.	.	.	.	.	.	.	.	.	.	.	.	48ccc
.	.	.	.	.	.	.	.	.	.	.	.	.	.	48bb
.	.	.	.	.	.	.	.	.	.	.	.	.	.	48aa
=90	=90	=90	=90	=90	=90	=90	=90	=90	=90	=90	=90	=90	=90	=90
2r	2r	4g	4g	2r	2r	2r	2r	2r	2r	2r	2ryy	8b'	2ryy	8gg'
.	.	.	.	.	.	.	.	.	.	.	.	8b'	.	8gg'
.	.	8G	8G	.	.	.	.	.	.	.	.	8b'	.	8gg'
.	.	8r	8r	.	.	.	.	.	.	.	.	8r	.	8r
=91	=91	=91	=91	=91	=91	=91	=91	=91	=91	=91	=91	=91	=91	=91
2r	2r	8fn	8fn	2r	2r	2r	2r	2r	2r	2r	2ryy	4dd	2ryy	4bb
.	.	16G	16G	.	.	.	.	.	.	.	.	.	.	.
.	.	16r	16r	.	.	.	.	.	.	.	.	.	.	.
.	.	8e	8e	.	.	.	.	.	.	.	.	4ee	.	4ccc
.	.	16G	16G	.	.	.	.	.	.	.	.	.	.	.
.	.	16r	16r	.	.	.	.	.	.	.	.	.	.	.
=92	=92	=92	=92	=92	=92	=92	=92	=92	=92	=92	=92	=92	=92	=92
2r	2r	8d'	8d'	2r	2r	2r	2r	2r	2r	2r	2ryy	8b	2ryy	8ff'
.	.	8d'	8d'	.	.	.	.	.	.	.	.	8b	.	8ff'
.	.	16d	16d	.	.	.	.	.	.	.	.	8b	.	16ff
.	.	16c#	16c#	.	.	.	.	.	.	.	.	.	.	16ee
.	.	16d	16d	.	.	.	.	.	.	.	.	8r	.	16ff
.	.	16e	16e	.	.	.	.	.	.	.	.	.	.	16gg
=93	=93	=93	=93	=93	=93	=93	=93	=93	=93	=93	=93	=93	=93	=93
2r	2r	16f	16f	2r	2r	2r	2r	2r	2r	2r	2ryy	8b	2ryy	8aa
.	.	16G	16G	.	.	.	.	.	.	.	.	.	.	.
.	.	16e	16e	.	.	.	.	.	.	.	.	8cc	.	8gg
.	.	16G	16G	.	.	.	.	.	.	.	.	.	.	.
.	.	16d	16d	.	.	.	.	.	.	.	.	8b	.	8ff
.	.	16G	16G	.	.	.	.	.	.	.	.	.	.	.
.	.	16c	16c	.	.	.	.	.	.	.	.	8cc	.	8ee
.	.	16G	16G	.	.	.	.	.	.	.	.	.	.	.
=94	=94	=94	=94	=94	=94	=94	=94	=94	=94	=94	=94	=94	=94	=94
2r	2r	4g	4g	2r	2r	2r	2r	2r	2r	2r	2ryy	16b'	2ryy	16dd'
.	.	.	.	.	.	.	.	.	.	.	.	16cc'	.	16ee'
.	.	.	.	.	.	.	.	.	.	.	.	16dd'	.	16ff'
.	.	.	.	.	.	.	.	.	.	.	.	16ee'	.	16gg'
.	.	4r	4r	.	.	.	.	.	.	.	.	16ff'	.	16aa'
.	.	.	.	.	.	.	.	.	.	.	.	16gg'	.	16bb'
.	.	.	.	.	.	.	.	.	.	.	.	16aa'	.	16ccc'
.	.	.	.	.	.	.	.	.	.	.	.	16bb'	.	16ddd'
=95	=95	=95	=95	=95	=95	=95	=95	=95	=95	=95	=95	=95	=95	=95
2r	2r	8c'	8c'	2r	2r	2r	2r	2r	2r	2r	2ryy	4ccc	2ryy	4eee
.	.	8c'	8c'	.	.	.	.	.	.	.	.	.	.	.
.	.	8e'	8e'	.	.	.	.	.	.	.	.	4gg	.	4ccc
.	.	8e'	8e'	.	.	.	.	.	.	.	.	.	.	.
=96	=96	=96	=96	=96	=96	=96	=96	=96	=96	=96	=96	=96	=96	=96
2r	2r	8g'	8g'	2r	2r	2r	2r	2r	2r	2r	2ryy	[8ee	2ryy	[8gg
.	.	8g'	8g'	.	.	.	.	.	.	.	.	32ee]	.	32gg]
.	.	.	.	.	.	.	.	.	.	.	.	32ff	.	32aa
.	.	.	.	.	.	.	.	.	.	.	.	32ee	.	32gg
.	.	.	.	.	.	.	.	.	.	.	.	32dd	.	32ff
.	.	4cc	4cc	.	.	.	.	.	.	.	.	8cc	.	8ee
.	.	.	.	.	.	.	.	.	.	.	.	8ee	.	8ccc
=97	=97	=97	=97	=97	=97	=97	=97	=97	=97	=97	=97	=97	=97	=97
2r	2r	8f'	8f'	2r	2r	2r	2r	2r	2r	2r	2ryy	8ff'	2ryy	8aa'
.	.	8f'	8f'	.	.	.	.	.	.	.	.	8ff'	.	8aa'
.	.	8g'	8g'	.	.	.	.	.	.	.	.	16ee	.	16gg
.	.	.	.	.	.	.	.	.	.	.	.	16dd	.	16ff
.	.	8g'	8g'	.	.	.	.	.	.	.	.	16cc	.	16ee
.	.	.	.	.	.	.	.	.	.	.	.	16b	.	16dd
=98	=98	=98	=98	=98	=98	=98	=98	=98	=98	=98	=98	=98	=98	=98
2r	2r	8c	8c	2r	2r	2r	2r	2r	2r	2r	2ryy	8cc	2ryy	8cc
.	.	8c	8c	.	.	.	.	.	.	.	.	8g	.	8cc
.	.	8c	8c	.	.	.	.	.	.	.	.	8e	.	8cc
.	.	8r	8r	.	.	.	.	.	.	.	.	8r	.	8r
=99	=99	=99	=99	=99	=99	=99	=99	=99	=99	=99	=99	=99	=99	=99
2r	2r	8f	8f	2r	2r	2r	2G	[2g	2r	2r	2ryy	4dd	2ryy	4bb
.	.	16G	16G	.	.	.	.	.	.	.	.	.	.	.
.	.	16r	16r	.	.	.	.	.	.	.	.	.	.	.
.	.	8e	8e	.	.	.	.	.	.	.	.	4ee	.	4ccc
.	.	16G	16G	.	.	.	.	.	.	.	.	.	.	.
.	.	16r	16r	.	.	.	.	.	.	.	.	.	.	.
=100	=100	=100	=100	=100	=100	=100	=100	=100	=100	=100	=100	=100	=100	=100
2r	2r	8d'	8d'	2r	2r	2r	2G	2g_	2r	2r	2ryy	8b	2ryy	8ff'
.	.	8d'	8d'	.	.	.	.	.	.	.	.	8b	.	8ff'
.	.	16d	16d	.	.	.	.	.	.	.	.	8b	.	16ff
.	.	16c#	16c#	.	.	.	.	.	.	.	.	.	.	16ee
.	.	16d'	16d'	.	.	.	.	.	.	.	.	8r	.	16ff
.	.	16e'	16e'	.	.	.	.	.	.	.	.	.	.	16gg
=101	=101	=101	=101	=101	=101	=101	=101	=101	=101	=101	=101	=101	=101	=101
2r	2r	16f	16f	2r	2r	2r	2G	2g_	2r	2r	2ryy	8b	2ryy	8aa
.	.	16G	16G	.	.	.	.	.	.	.	.	.	.	.
.	.	16e	16e	.	.	.	.	.	.	.	.	8cc	.	8gg
.	.	16G	16G	.	.	.	.	.	.	.	.	.	.	.
.	.	16d	16d	.	.	.	.	.	.	.	.	8b	.	8ff
.	.	16G	16G	.	.	.	.	.	.	.	.	.	.	.
.	.	16c	16c	.	.	.	.	.	.	.	.	8cc	.	8ee
.	.	16G	16G	.	.	.	.	.	.	.	.	.	.	.
=102	=102	=102	=102	=102	=102	=102	=102	=102	=102	=102	=102	=102	=102	=102
2r	2r	4g	4g	2r	2r	2r	4G	4g]	2r	2r	2ryy	16b'	2ryy	16dd'
.	.	.	.	.	.	.	.	.	.	.	.	16cc'	.	16ee'
.	.	.	.	.	.	.	.	.	.	.	.	16dd'	.	16ff'
.	.	.	.	.	.	.	.	.	.	.	.	16ee'	.	16gg'
.	.	4r	4r	.	.	.	4ryy	4r	.	.	.	16ff'	.	16aa'
.	.	.	.	.	.	.	.	.	.	.	.	16gg'	.	16bb'
.	.	.	.	.	.	.	.	.	.	.	.	16aa'	.	16ccc'
.	.	.	.	.	.	.	.	.	.	.	.	16bb'	.	16ddd'
=103	=103	=103	=103	=103	=103	=103	=103	=103	=103	=103	=103	=103	=103	=103
2r	2r	8c'	8c'	2r	2r	2r	4c	4e	2r	2r	2ryy	4ccc	2ryy	4eee
.	.	8c'	8c'	.	.	.	.	.	.	.	.	.	.	.
.	.	8e'	8e'	.	.	.	4e	4g	.	.	.	4gg	.	4ccc
.	.	8e'	8e'	.	.	.	.	.	.	.	.	.	.	.
=104	=104	=104	=104	=104	=104	=104	=104	=104	=104	=104	=104	=104	=104	=104
2r	2r	8g'	8g'	2r	2r	2r	4g	4cc	2r	2r	2ryy	[8ee	2ryy	[8gg
.	.	8g'	8g'	.	.	.	.	.	.	.	.	32ee]	.	32gg]
.	.	.	.	.	.	.	.	.	.	.	.	32ff	.	32aa
.	.	.	.	.	.	.	.	.	.	.	.	32ee	.	32gg
.	.	.	.	.	.	.	.	.	.	.	.	32dd	.	32ff
.	.	4cc	4cc	.	.	.	4cc	4ee	.	.	.	8cc	.	8ee
.	.	.	.	.	.	.	.	.	.	.	.	8ee	.	8ccc
=105	=105	=105	=105	=105	=105	=105	=105	=105	=105	=105	=105	=105	=105	=105
2r	2r	8f'	8f'	2r	2r	2r	2r	2r	2r	2r	2ryy	8ff'	2ryy	8aa'
.	.	8f'	8f'	.	.	.	.	.	.	.	.	8ff'	.	8aa'
.	.	8g'	8g'	.	.	.	.	.	.	.	.	16ee	.	16gg
.	.	.	.	.	.	.	.	.	.	.	.	16dd	.	16ff
.	.	8g'	8g'	.	.	.	.	.	.	.	.	16cc	.	16ee
.	.	.	.	.	.	.	.	.	.	.	.	16b	.	16dd
=106	=106	=106	=106	=106	=106	=106	=106	=106	=106	=106	=106	=106	=106	=106
2r	2r	8c	8c	2r	2r	2r	2r	2r	2r	2r	2ryy	8cc	2ryy	8cc
.	.	8c	8c	.	.	.	.	.	.	.	.	8g	.	8cc
.	.	8c	8c	.	.	.	.	.	.	.	.	8e	.	8cc
.	.	8r	8r	.	.	.	.	.	.	.	.	8r	.	8r
=107	=107	=107	=107	=107	=107	=107	=107	=107	=107	=107	=107	=107	=107	=107
*	*	*	*	*	*	*	*	*	*	*	*k[]	*	*	*
8ryy	8r	8r	24c'	8C	8e	8cc	8e	8cc	8r	8r	8e	8cc	8ccc	8ccc
.	.	.	24e'	.	.	.	.	.	.	.	.	.	.	.
.	.	.	24g'	.	.	.	.	.	.	.	.	.	.	.
8C	8C 8G 8e	8G 8e 8cc	24cc'	8C	8e	8cc	8e	8cc	8C	8C	8e	8cc	8ccc	8ccc
.	.	.	24b'	.	.	.	.	.	.	.	.	.	.	.
.	.	.	24cc'	.	.	.	.	.	.	.	.	.	.	.
8ryy	8r	8r	24e'	8C	8cc	8ee	8cc	8ee	8r	8r	8cc	8ee	8eee	8eee
.	.	.	24g'	.	.	.	.	.	.	.	.	.	.	.
.	.	.	24cc'	.	.	.	.	.	.	.	.	.	.	.
8C	8C 8G 8e	8G 8e 8cc	24ee'	8C	8cc	8ee	8cc	8ee	8C	8C	8cc	8ee	8eee	8eee
.	.	.	24dd'	.	.	.	.	.	.	.	.	.	.	.
.	.	.	24ee'	.	.	.	.	.	.	.	.	.	.	.
=108	=108	=108	=108	=108	=108	=108	=108	=108	=108	=108	=108	=108	=108	=108
8ryy	8r	8r	24g	8C	8ee	8gg	8ee	8gg	8r	8r	8ee	8gg	8ggg	8ggg
.	.	.	24cc	.	.	.	.	.	.	.	.	.	.	.
.	.	.	24ee	.	.	.	.	.	.	.	.	.	.	.
8C	8C 8G 8e	8g 8cc 8ee	24gg	8C	8ee	8gg	8ee	8gg	8C	8C	8ee	8gg	8ggg	8ggg
.	.	.	24ff#	.	.	.	.	.	.	.	.	.	.	.
.	.	.	24gg	.	.	.	.	.	.	.	.	.	.	.
8ryy	8r	8r	24cc	8C	8cc	8ee	8cc	8ee	8r	8r	8cc	8ee	8eee	8eee
.	.	.	24ee	.	.	.	.	.	.	.	.	.	.	.
.	.	.	24gg	.	.	.	.	.	.	.	.	.	.	.
8C	8C 8G 8e	8e 8cc 8gg	24ccc	8C	8cc	8ee	8cc	8ee	8C	8C	8cc	8ee	8eee	8eee
.	.	.	24gg	.	.	.	.	.	.	.	.	.	.	.
.	.	.	24ee	.	.	.	.	.	.	.	.	.	.	.
=109	=109	=109	=109	=109	=109	=109	=109	=109	=109	=109	=109	=109	=109	=109
8D	8d	24ff	24ff	4GG	8dd	8ff	8dd	8ff	8D	8D	8ff	8ff	8fff	8fff
.	.	24gg	24gg	.	.	.	.	.	.	.	.	.	.	.
.	.	24aa	24aa	.	.	.	.	.	.	.	.	.	.	.
8D	8d	24gg	24gg	.	8dd	8ff	8dd	8ff	8D	8D	8ff	8ff	8fff	8fff
.	.	24ff	24ff	.	.	.	.	.	.	.	.	.	.	.
.	.	24ee	24ee	.	.	.	.	.	.	.	.	.	.	.
8F	8f	24dd	24dd	4r	8dd	8dd	8dd	8dd	8F	8F	8dd	8dd	8ddd	8ddd
.	.	24ee	24ee	.	.	.	.	.	.	.	.	.	.	.
.	.	24ff	24ff	.	.	.	.	.	.	.	.	.	.	.
8F	8f	24ee	24ee	.	8dd	8dd	8dd	8dd	8F	8F	8dd	8dd	8ddd	8ddd
.	.	24dd	24dd	.	.	.	.	.	.	.	.	.	.	.
.	.	24cc	24cc	.	.	.	.	.	.	.	.	.	.	.
=110	=110	=110	=110	=110	=110	=110	=110	=110	=110	=110	=110	=110	=110	=110
8G	8g	24b	24b	4GG	4g	4dd	4g	4dd	8G	8G	8b	8b	8bb	8bb
.	.	24cc	24cc	.	.	.	.	.	.	.	.	.	.	.
.	.	24dd	24dd	.	.	.	.	.	.	.	.	.	.	.
8G	8g	24cc	24cc	.	.	.	.	.	8G	8G	8b	8b	8bb	8bb
.	.	24b	24b	.	.	.	.	.	.	.	.	.	.	.
.	.	24a	24a	.	.	.	.	.	.	.	.	.	.	.
8B	8B	24g	24g	4r	4ryy	4r	4ryy	4r	8B	8B	8g	8g	8gg	8gg
.	.	24a	24a	.	.	.	.	.	.	.	.	.	.	.
.	.	24g	24g	.	.	.	.	.	.	.	.	.	.	.
8B	8B	24f	24f	.	.	.	.	.	8B	8B	8g	8g	8gg	8gg
.	.	24e	24e	.	.	.	.	.	.	.	.	.	.	.
.	.	24d	24d	.	.	.	.	.	.	.	.	.	.	.
=111	=111	=111	=111	=111	=111	=111	=111	=111	=111	=111	=111	=111	=111	=111
8ryy	8r	8c	24c	8C	8e	8cc	8e	8cc	8r	8r	8e	8cc	8ccc	8ccc
.	.	.	24e	.	.	.	.	.	.	.	.	.	.	.
.	.	.	24g	.	.	.	.	.	.	.	.	.	.	.
8C	8C 8G 8e	8G 8e 8cc	24cc	8C	8e	8cc	8e	8cc	8C	8C	8e	8cc	8ccc	8ccc
.	.	.	24b	.	.	.	.	.	.	.	.	.	.	.
.	.	.	24cc	.	.	.	.	.	.	.	.	.	.	.
8ryy	8r	8r	24e	8C	8cc	8ee	8cc	8ee	8r	8r	8cc	8ee	8eee	8eee
.	.	.	24g	.	.	.	.	.	.	.	.	.	.	.
.	.	.	24cc	.	.	.	.	.	.	.	.	.	.	.
8C	8C 8G 8e	8G 8e 8cc	24ee	8C	8cc	8ee	8cc	8ee	8C	8C	8cc	8ee	8eee	8eee
.	.	.	24dd	.	.	.	.	.	.	.	.	.	.	.
.	.	.	24ee	.	.	.	.	.	.	.	.	.	.	.
=112	=112	=112	=112	=112	=112	=112	=112	=112	=112	=112	=112	=112	=112	=112
8ryy	8r	8r	24g	8C	8ee	8gg	8ee	8gg	8r	8r	8ee	8gg	8ggg	8ggg
.	.	.	24cc	.	.	.	.	.	.	.	.	.	.	.
.	.	.	24ee	.	.	.	.	.	.	.	.	.	.	.
8C	8C 8G 8e	8g 8cc 8ee	24gg	8C	8ee	8gg	8ee	8gg	8C	8C	8ee	8gg	8ggg	8ggg
.	.	.	24ff#	.	.	.	.	.	.	.	.	.	.	.
.	.	.	24gg	.	.	.	.	.	.	.	.	.	.	.
8ryy	8r	8r	24cc	8C	8cc	8ee	8cc	8ee	8r	8r	8cc	8ee	8eee	8eee
.	.	.	24ee	.	.	.	.	.	.	.	.	.	.	.
.	.	.	24gg	.	.	.	.	.	.	.	.	.	.	.
8C	8C 8G 8e	8e 8cc 8gg	24ccc	8C	8cc	8ee	8cc	8ee	8C	8C	8cc	8ee	8eee	8eee
.	.	.	24bb	.	.	.	.	.	.	.	.	.	.	.
.	.	.	24ccc	.	.	.	.	.	.	.	.	.	.	.
=113	=113	=113	=113	=113	=113	=113	=113	=113	=113	=113	=113	=113	=113	=113
8r	8r	24ee	24ee	4C	4cc	4ee	4cc	4ee	8r	8r	8ee	8ccc	8ccc	8ccc
.	.	24ccc	24eee	.	.	.	.	.	.	.	.	.	.	.
.	.	24ccc	24eee	.	.	.	.	.	.	.	.	.	.	.
8C	8c	24ccc	24eee	.	.	.	.	.	8C	8C	8ee	8ccc	8eee	8eee
.	.	24ccc	24eee	.	.	.	.	.	.	.	.	.	.	.
.	.	24ccc	24eee	.	.	.	.	.	.	.	.	.	.	.
8D	8d	24bb	24ddd	4r	8ryy	8r	8ryy	8r	8D	8D	24dd	24bb	24ddd	24ddd
.	.	24aa	24ccc	.	.	.	.	.	.	.	24cc	24aa	24ccc	24ccc
.	.	24gg	24bb	.	.	.	.	.	.	.	24b	24gg	24bb	24bb
8D	8d	24ff#	24aa	.	8dd	8dd	8dd	8dd	8D	8D	24a	24ff#	24aa	24aa
.	.	24gg	24gg	.	.	.	.	.	.	.	24b	24gg	24gg	24gg
.	.	24aa	24ff#	.	.	.	.	.	.	.	24cc	24aa	24ff#	24ff#
=114	=114	=114	=114	=114	=114	=114	=114	=114	=114	=114	=114	=114	=114	=114
8GG	4d	24gg	24gg	8GG	8g	8dd	8g	8dd	8GG	8GG	8b	8gg	8gg	8gg
.	.	24ee	24ee	.	.	.	.	.	.	.	.	.	.	.
.	.	24dd	24dd	.	.	.	.	.	.	.	.	.	.	.
8G	.	24cc	24cc	8GG	8g	8dd	8g	8dd	8G	8G	8b	8gg	8gg	8gg
.	.	24b	24b	.	.	.	.	.	.	.	.	.	.	.
.	.	24a	24a	.	.	.	.	.	.	.	.	.	.	.
8GG	4r	8g	8g	8GG	8g	8dd	8g	8dd	8GG	8GG	8b	8gg	8gg	8gg
8r	.	8r	8r	8r	8ryy	8r	8ryy	8r	8r	8r	8ryy	8r	8r	8r
=115	=115	=115	=115	=115	=115	=115	=115	=115	=115	=115	=115	=115	=115	=115
8r	8r	8.c	8.c	2r	2r	2r	2r	2r	8r	8r	2r	2r	2r	2r
8C	8E	.	.	.	.	.	.	.	8C	8C	.	.	.	.
.	.	16G	16G	.	.	.	.	.	.	.	.	.	.	.
8r	8r	8.e	8.e	.	.	.	.	.	8r	8r	.	.	.	.
8C	8E	.	.	.	.	.	.	.	8C	8C	.	.	.	.
.	.	16c	16c	.	.	.	.	.	.	.	.	.	.	.
=116	=116	=116	=116	=116	=116	=116	=116	=116	=116	=116	=116	=116	=116	=116
8r	8r	8.g	8.g	2r	2r	2r	2r	2r	8r	8r	2r	2r	2r	2r
8C	8E	.	.	.	.	.	.	.	8C	8C	.	.	.	.
.	.	16e	16e	.	.	.	.	.	.	.	.	.	.	.
8r	8r	8.cc	8.cc	.	.	.	.	.	8r	8r	.	.	.	.
8C	8E	.	.	.	.	.	.	.	8C	8C	.	.	.	.
.	.	16b	16b	.	.	.	.	.	.	.	.	.	.	.
=117	=117	=117	=117	=117	=117	=117	=117	=117	=117	=117	=117	=117	=117	=117
8F'	8F	16b	16b	2r	2r	2r	2r	2r	8F	8F	2r	2r	2r	2r
.	.	16a	16a	.	.	.	.	.	.	.	.	.	.	.
8F'	8F	16a	16a	.	.	.	.	.	8F	8F	.	.	.	.
.	.	16g	16g	.	.	.	.	.	.	.	.	.	.	.
8D'	8D	16g	16g	.	.	.	.	.	8D	8D	.	.	.	.
.	.	16f	16f	.	.	.	.	.	.	.	.	.	.	.
8D'	8D	16f	16f	.	.	.	.	.	8D	8D	.	.	.	.
.	.	16e	16e	.	.	.	.	.	.	.	.	.	.	.
=118	=118	=118	=118	=118	=118	=118	=118	=118	=118	=118	=118	=118	=118	=118
8BB'	8B	16e	16e	2r	2r	2r	2r	2r	8BB'	8BB'	2r	2r	2r	2r
.	.	16d	16d	.	.	.	.	.	.	.	.	.	.	.
8BB'	8B	16d	16d	.	.	.	.	.	8BB'	8BB'	.	.	.	.
.	.	16c	16c	.	.	.	.	.	.	.	.	.	.	.
4GG	8G	16c	16c	.	.	.	.	.	4GG	4GG	.	.	.	.
.	.	16B	16B	.	.	.	.	.	.	.	.	.	.	.
.	8G	16A	16A	.	.	.	.	.	.	.	.	.	.	.
.	.	16G	16G	.	.	.	.	.	.	.	.	.	.	.
=119	=119	=119	=119	=119	=119	=119	=119	=119	=119	=119	=119	=119	=119	=119
8r	8r	8.c	8.c	2r	2r	2r	2r	2r	8r	8r	2r	2r	2r	2r
8C	8E	.	.	.	.	.	.	.	8C	8C	.	.	.	.
.	.	16G	16G	.	.	.	.	.	.	.	.	.	.	.
8r	8r	8.e	8.e	.	.	.	.	.	8r	8r	.	.	.	.
8C	8E	.	.	.	.	.	.	.	8C	8C	.	.	.	.
.	.	16c	16c	.	.	.	.	.	.	.	.	.	.	.
=120	=120	=120	=120	=120	=120	=120	=120	=120	=120	=120	=120	=120	=120	=120
8r	8r	8.g	8.g	2r	2r	2r	2r	2r	8r	8r	2r	2r	2r	2r
8C	8E	.	.	.	.	.	.	.	8C	8C	.	.	.	.
.	.	16e	16e	.	.	.	.	.	.	.	.	.	.	.
8r	8r	8.cc	8.cc	.	.	.	.	.	8r	8r	.	.	.	.
8C	8E	.	.	.	.	.	.	.	8C	8C	.	.	.	.
.	.	16g	16g	.	.	.	.	.	.	.	.	.	.	.
=121	=121	=121	=121	=121	=121	=121	=121	=121	=121	=121	=121	=121	=121	=121
8r	8r	8.ee	8.ee	2r	2r	2r	2r	2r	8r	8r	2r	2r	2r	2r
8AA	16c	.	.	.	.	.	.	.	8AA	8AA	.	.	.	.
.	16e	16cc	16cc	.	.	.	.	.	.	.	.	.	.	.
8D	16d	16b	16b	.	.	.	.	.	8D	8D	.	.	.	.
.	16c	16a	16a	.	.	.	.	.	.	.	.	.	.	.
8D	16B	16g	16g	.	.	.	.	.	8D	8D	.	.	.	.
.	16A	16f#	16f#	.	.	.	.	.	.	.	.	.	.	.
=122	=122	=122	=122	=122	=122	=122	=122	=122	=122	=122	=122	=122	=122	=122
8GG	8B	8g	8g	2r	2r	2r	2r	2r	8GG	8GG	2r	2r	2r	2r
8GG	8B	8g	8g	.	.	.	.	.	8GG	8GG	.	.	.	.
8GG	8B	8g	8g	.	.	.	.	.	8GG	8GG	.	.	.	.
8r	8r	8r	8r	.	.	.	.	.	8r	8r	.	.	.	.
=123	=123	=123	=123	=123	=123	=123	=123	=123	=123	=123	=123	=123	=123	=123
8r	4d	8.fn	8.fn	2r	2r	2r	2r	2r	8r	8r	2r	2r	2r	2r
8BB	.	.	.	.	.	.	.	.	8BB	8BB	.	.	.	.
.	.	16G	16G	.	.	.	.	.	.	.	.	.	.	.
8r	4c	8.e	8.e	.	.	.	.	.	8r	8r	.	.	.	.
8C	.	.	.	.	.	.	.	.	8C	8C	.	.	.	.
.	.	16G	16G	.	.	.	.	.	.	.	.	.	.	.
=124	=124	=124	=124	=124	=124	=124	=124	=124	=124	=124	=124	=124	=124	=124
8GG	8B	8d	8d	2r	2r	2r	2r	2r	8GG	8GG	2r	2r	2r	2r
8GG	8B	8d	8d	.	.	.	.	.	8GG	8GG	.	.	.	.
8GG	8B	16d	16d	.	.	.	.	.	8GG	8GG	.	.	.	.
.	.	16e	16e	.	.	.	.	.	.	.	.	.	.	.
8r	8r	16f	16f	.	.	.	.	.	8r	8r	.	.	.	.
.	.	16g	16g	.	.	.	.	.	.	.	.	.	.	.
=125	=125	=125	=125	=125	=125	=125	=125	=125	=125	=125	=125	=125	=125	=125
[2GG	8F	16g#	16g#	2r	2r	2r	2r	2r	[2GG	[2GG	2r	2r	2r	2r
.	.	16a	16a	.	.	.	.	.	.	.	.	.	.	.
.	8E	16f#	16f#	.	.	.	.	.	.	.	.	.	.	.
.	.	16gn	16gn	.	.	.	.	.	.	.	.	.	.	.
.	8D	16e	16e	.	.	.	.	.	.	.	.	.	.	.
.	.	16fn	16fn	.	.	.	.	.	.	.	.	.	.	.
.	8C	16d#	16d#	.	.	.	.	.	.	.	.	.	.	.
.	.	16e	16e	.	.	.	.	.	.	.	.	.	.	.
=126	=126	=126	=126	=126	=126	=126	=126	=126	=126	=126	=126	=126	=126	=126
4GG]	4G	8dn'	8dn'	2r	2r	2r	2r	2r	4GG]	4GG]	2r	2r	2r	2r
.	.	8d'	8d'	.	.	.	.	.	.	.	.	.	.	.
4r	4r	8d	8d	.	.	.	.	.	4r	4r	.	.	.	.
.	.	8d#	8d#	.	.	.	.	.	.	.	.	.	.	.
=127	=127	=127	=127	=127	=127	=127	=127	=127	=127	=127	=127	=127	=127	=127
8r	8r	8.e	8.e	2r	2r	2r	2r	2r	8r	8r	2r	2r	2r	2r
8C	8E	.	.	.	.	.	.	.	8C	8C	.	.	.	.
.	.	16c	16c	.	.	.	.	.	.	.	.	.	.	.
8r	8r	8.g	8.g	.	.	.	.	.	8r	8r	.	.	.	.
8C	8E	.	.	.	.	.	.	.	8C	8C	.	.	.	.
.	.	16e	16e	.	.	.	.	.	.	.	.	.	.	.
=128	=128	=128	=128	=128	=128	=128	=128	=128	=128	=128	=128	=128	=128	=128
8r	8r	16.cc	16.cc	2r	2r	2r	2r	2r	8r	8r	2r	2r	2r	2r
.	.	32g	32g	.	.	.	.	.	.	.	.	.	.	.
8C	8E	16.ee	16.ee	.	.	.	.	.	8C	8C	.	.	.	.
.	.	32cc	32cc	.	.	.	.	.	.	.	.	.	.	.
8r	8r	16.gg	16.gg	.	.	.	.	.	8r	8r	.	.	.	.
.	.	32ee	32ee	.	.	.	.	.	.	.	.	.	.	.
8C	8E	8ccc	8ccc	.	.	.	.	.	8C	8C	.	.	.	.
=129	=129	=129	=129	=129	=129	=129	=129	=129	=129	=129	=129	=129	=129	=129
8r	8r	8r	8r	2r	2r	2r	2r	2r	8r	8r	2r	2r	2r	2r
8F	8F	8a	8a	.	.	.	.	.	8F	8F	.	.	.	.
8r	8r	8r	8r	.	.	.	.	.	8r	8r	.	.	.	.
8G	8B	8d	8d	.	.	.	.	.	8G	8G	.	.	.	.
=130	=130	=130	=130	=130	=130	=130	=130	=130	=130	=130	=130	=130	=130	=130
8C	4d	4f	4f	2r	2r	2r	2r	2r	8C	8C	2r	2r	2r	2r
8CC	.	.	.	.	.	.	.	.	8CC	8CC	.	.	.	.
8CC	8c	8e	8e	.	.	.	.	.	8CC	8CC	.	.	.	.
8r	8r	8r	8r	.	.	.	.	.	8r	8r	.	.	.	.
=131	=131	=131	=131	=131	=131	=131	=131	=131	=131	=131	=131	=131	=131	=131
8BB	16g	16ff	16ddd	8GG'	8g'y	8dd'	8g	8dd	16BB	16BB	8dd	8ff	8fff'	8fff'
.	16g	16dd	16ff	.	.	.	.	.	16G	16G	.	.	.	.
8BB	16g	16ff	16ddd	8GG'	8g'y	8dd'	8g	8dd	16BB	16BB	8dd	8ff	8fff'	8fff'
.	16g	16dd	16ff	.	.	.	.	.	16G	16G	.	.	.	.
8C	16g	16ee	16ccc	8C'	8cc'y	8ee'	8cc	8ee	16C	16C	8cc	8ee	8eee'	8eee'
.	16g	16cc	16ee	.	.	.	.	.	16G	16G	.	.	.	.
8C	16g	16ee	16ccc	8C'	8cc'y	8ee'	8cc	8ee	16C	16C	8cc	8ee	8eee'	8eee'
.	16g	16cc	16ee	.	.	.	.	.	16G	16G	.	.	.	.
=132	=132	=132	=132	=132	=132	=132	=132	=132	=132	=132	=132	=132	=132	=132
4GG	16g	16gg	16bb	8GG	8g	8dd	8g	8dd	8GG	8GG	8b	8dd	8ddd	8ddd
.	32g	32g	32g	.	.	.	.	.	.	.	.	.	.	.
.	32g	32g	32g	.	.	.	.	.	.	.	.	.	.	.
.	16g	16g	16g	16GG	16g	16gg	16g	16gg	16GG	16GG	16g	16gg	16gg	16gg
.	16g	16g	16g	16GG	16g	16gg	16g	16gg	16GG	16GG	16g	16gg	16gg	16gg
4r	16g	16g	16g	16GG	16g	16gg	16g	16gg	16GG	16GG	16g	16gg	16gg	16gg
.	16g	16g	16g	16GG	16g	16gg	16g	16gg	16GG	16GG	16g	16gg	16gg	16gg
.	16g	16g	16g	16GG	16g	16gg	16g	16gg	16GG	16GG	16g	16gg	16gg	16gg
.	16g	16g	16g	16GG	16g	16gg	16g	16gg	16GG	16GG	16g	16gg	16gg	16gg
=133	=133	=133	=133	=133	=133	=133	=133	=133	=133	=133	=133	=133	=133	=133
8BB	16g	16ff	16ddd	8GG	8dd	8ff	8dd	8ff	16BB	16BB	8dd	8ff	8fff	8fff
.	16g	16dd	16ff	.	.	.	.	.	16G	16G	.	.	.	.
8BB	16g	16ff	16ddd	8GG	8dd	8ff	8dd	8ff	16BB	16BB	8dd	8ff	8fff	8fff
.	16g	16dd	16ff	.	.	.	.	.	16G	16G	.	.	.	.
8C	16g	16ee	16ccc	8C	8cc	8ee	8cc	8ee	16C	16C	8cc	8ee	8eee	8eee
.	16g	16cc	16ee	.	.	.	.	.	16G	16G	.	.	.	.
8C	16g	16ee	16ccc	8C	8cc	8ee	8cc	8ee	16C	16C	8cc	8ee	8eee	8eee
.	16g	16cc	16ee	.	.	.	.	.	16G	16G	.	.	.	.
=134	=134	=134	=134	=134	=134	=134	=134	=134	=134	=134	=134	=134	=134	=134
4GG	16g	16gg	16bb	8GG	8g	8dd	8g	8dd	8GG	8GG	8b	8dd	8ddd	8ddd
.	32g	32g	32g	.	.	.	.	.	.	.	.	.	.	.
.	32g	32g	32g	.	.	.	.	.	.	.	.	.	.	.
.	16g	16g	16g	16GG	16g	16dd	16g	16dd	8G	8G	16b	8dd	16gg	16gg
.	16g	16g	16g	16GG	16g	16dd	16g	16dd	.	.	16b	.	16gg	16gg
4r	16g	16g	16g	16GG	8g	8dd	8g	8dd	16G	16G	8b	8dd	8gg	8gg
.	16f	16f	16f	16GG	.	.	.	.	16F	16F	.	.	.	.
.	16e	16e	16e	16GG	8ryy	8r	8ryy	8r	16E	16E	8ryy	8r	8r	8r
.	16d	16d	16d	16GG	.	.	.	.	16D	16D	.	.	.	.
=135	=135	=135	=135	=135	=135	=135	=135	=135	=135	=135	=135	=135	=135	=135
8ryy	8c	8c	24c'	8C	8e	8cc	8e	8cc	8C	8C	8e	8cc	8ccc	8ccc
.	.	.	24e'	.	.	.	.	.	.	.	.	.	.	.
.	.	.	24g'	.	.	.	.	.	.	.	.	.	.	.
8C	8C 8G 8e	8G 8e	24cc'	8C	8e	8cc	8e	8cc	8C	8C	8e	8cc	8ccc	8ccc
.	.	.	24b'	.	.	.	.	.	.	.	.	.	.	.
.	.	.	24cc'	.	.	.	.	.	.	.	.	.	.	.
8ryy	8r	8r	24e'	8C	8cc	8ee	8cc	8ee	8r	8r	8cc	8ee	8eee	8eee
.	.	.	24g'	.	.	.	.	.	.	.	.	.	.	.
.	.	.	24cc'	.	.	.	.	.	.	.	.	.	.	.
8C	8C 8G 8e	8G 8e 8cc	24ee'	8C	8cc	8ee	8cc	8ee	8C	8C	8cc	8ee	8eee	8eee
.	.	.	24dd'	.	.	.	.	.	.	.	.	.	.	.
.	.	.	24ee'	.	.	.	.	.	.	.	.	.	.	.
=136	=136	=136	=136	=136	=136	=136	=136	=136	=136	=136	=136	=136	=136	=136
8ryy	8r	8r	24g	8C	8ee	8gg	8ee	8gg	8r	8r	8ee	8gg	8ggg	8ggg
.	.	.	24cc	.	.	.	.	.	.	.	.	.	.	.
.	.	.	24ee	.	.	.	.	.	.	.	.	.	.	.
8C	8C 8G 8e	8g 8cc 8ee	24gg	8C	8ee	8gg	8ee	8gg	8C	8C	8ee	8gg	8ggg	8ggg
.	.	.	24ff#	.	.	.	.	.	.	.	.	.	.	.
.	.	.	24gg	.	.	.	.	.	.	.	.	.	.	.
8ryy	8r	8r	24cc	8C	8cc	8ee	8cc	8ee	8r	8r	4gg	4ccc	4eee	4eee
.	.	.	24ee	.	.	.	.	.	.	.	.	.	.	.
.	.	.	24gg	.	.	.	.	.	.	.	.	.	.	.
8C	8C 8G 8e	8e 8cc 8gg	24ccc	8C	8cc	8ee	8cc	8ee	8C	8C	.	.	.	.
.	.	.	24bb	.	.	.	.	.	.	.	.	.	.	.
.	.	.	24ccc	.	.	.	.	.	.	.	.	.	.	.
=137	=137	=137	=137	=137	=137	=137	=137	=137	=137	=137	=137	=137	=137	=137
8F	8f	24aa	24aa	4r	8dd	8dd	8dd	8dd	8F	8F	8aa	8aa	8fff	8fff
.	.	24gg	24gg	.	.	.	.	.	.	.	.	.	.	.
.	.	24ff	24ff	.	.	.	.	.	.	.	.	.	.	.
8F	8f	24ee	24ee	.	8dd	8dd	8dd	8dd	8F	8F	8aa	8aa	8fff	8fff
.	.	24dd	24dd	.	.	.	.	.	.	.	.	.	.	.
.	.	24cc	24cc	.	.	.	.	.	.	.	.	.	.	.
8G	8g	24b	24b	8GG	8g	8dd	8g	8dd	8G	8G	8dd	8b	8bb	8bb
.	.	24a	24a	.	.	.	.	.	.	.	.	.	.	.
.	.	24g	24g	.	.	.	.	.	.	.	.	.	.	.
8G	8g	24f	24f	8GG	8g	8dd	8g	8dd	8G	8G	8dd	8b	8bb	8bb
.	.	24e	24e	.	.	.	.	.	.	.	.	.	.	.
.	.	24d	24d	.	.	.	.	.	.	.	.	.	.	.
=138	=138	=138	=138	=138	=138	=138	=138	=138	=138	=138	=138	=138	=138	=138
4C	24c	24c	4c	4C	4e	4cc	4e	4cc	4C	4C	4cc	4cc	4ccc	4ccc
.	24c	24c	.	.	.	.	.	.	.	.	.	.	.	.
.	24c	24c	.	.	.	.	.	.	.	.	.	.	.	.
.	24c	24c	.	.	.	.	.	.	.	.	.	.	.	.
.	24c	24c	.	.	.	.	.	.	.	.	.	.	.	.
.	24c	24c	.	.	.	.	.	.	.	.	.	.	.	.
4r	24c	24c	4r	4r	4ryy	4r	4ryy	4r	4r	4r	4ryy	4r	4r	4r
.	24c	24c	.	.	.	.	.	.	.	.	.	.	.	.
.	24c	24c	.	.	.	.	.	.	.	.	.	.	.	.
.	24c	24c	.	.	.	.	.	.	.	.	.	.	.	.
.	24c	24c	.	.	.	.	.	.	.	.	.	.	.	.
.	24c	24c	.	.	.	.	.	.	.	.	.	.	.	.
=139	=139	=139	=139	=139	=139	=139	=139	=139	=139	=139	=139	=139	=139	=139
8A'	16c	16c	8ff'	8C	8c	8cc	8c	8cc	8A'	8A'	8ff'	8ff'	8fff'	8fff'
.	16c	16c	.	.	.	.	.	.	.	.	.	.	.	.
8A'	16c	16c	8ff'	16C	16c	16cc	16c	16cc	8A'	8A'	8ff'	8ff'	8fff'	8fff'
.	16c	16c	.	16C	16c	16cc	16c	16cc	.	.	.	.	.	.
8G	16c	16c	8ee'	16C	16c	16cc	16c	16cc	8G'	8G'	8ee'	8ee'	8eee'	8eee'
.	16c	16c	.	16C	16c	16cc	16c	16cc	.	.	.	.	.	.
8r	16c	16c	8r	16C	16c	16cc	16c	16cc	8r	8r	8r	8r	8r	8r
.	16c	16c	.	16C	16c	16cc	16c	16cc	.	.	.	.	.	.
=140	=140	=140	=140	=140	=140	=140	=140	=140	=140	=140	=140	=140	=140	=140
8F'	16c	16c	8dd'	8C	8c	8cc	8c	8cc	8F'	8F'	8dd'	8dd'	8ddd'	8ddd'
.	16c	16c	.	.	.	.	.	.	.	.	.	.	.	.
8F'	16c	16c	8dd'	8C	8c	8cc	8c	8cc	8F'	8F'	8dd'	8dd'	8ddd'	8ddd'
.	16c	16c	.	.	.	.	.	.	.	.	.	.	.	.
8G	16c	16c	8ee'	8C	8c	8cc	8c	8cc	8G'	8G'	8ee'	8ee'	8eee'	8eee'
.	16c	16c	.	.	.	.	.	.	.	.	.	.	.	.
8r	16c	16c	8r	8C	8c	8cc	8c	8cc	8r	8r	8r	8r	8r	8r
.	16c	16c	.	.	.	.	.	.	.	.	.	.	.	.
=141	=141	=141	=141	=141	=141	=141	=141	=141	=141	=141	=141	=141	=141	=141
8A	16c	16c	8cc 8ccc	8C	8c	8cc	8c	8cc	8f	8f	8ff	8ff	8fff	8fff
.	16c	16c	.	.	.	.	.	.	.	.	.	.	.	.
8A	16c	16c	8cc 8ccc	16C	16c	16cc	16c	16cc	8f	8f	8ff	8ff	8fff	8fff
.	16c	16c	.	16C	16c	16cc	16c	16cc	.	.	.	.	.	.
8G	16c	16c	8cc 8ccc	16C	16c	16cc	16c	16cc	8e	8e	8ee	8ee	8eee	8eee
.	16c	16c	.	16C	16c	16cc	16c	16cc	.	.	.	.	.	.
8r	16c	16c	8r	16C	16c	16cc	16c	16cc	8r	8r	8r	8r	8r	8r
.	16c	16c	.	16C	16c	16cc	16c	16cc	.	.	.	.	.	.
=142	=142	=142	=142	=142	=142	=142	=142	=142	=142	=142	=142	=142	=142	=142
8F	16c	16c	8cc 8ccc	8C	8c	8cc	8c	8cc	8d	8d	8dd	8dd	8ddd	8ddd
.	16c	16c	.	.	.	.	.	.	.	.	.	.	.	.
8F	16c	16c	8cc 8ccc	8C	8c	8cc	8c	8cc	8d	8d	8dd	8dd	8ddd	8ddd
.	16c	16c	.	.	.	.	.	.	.	.	.	.	.	.
4F#;	4A;	4e-;	4cc;y 4ccc;	4CT;y	4c;	4cc;y	4c;	4cc;y	4e-;	4e-;	4ee-;	4ee-;	4eee-;	4eee-;
=143	=143	=143	=143	=143	=143	=143	=143	=143	=143	=143	=143	=143	=143	=143
4GG	4G	8en'	8g'	2r	2r	2r	2r	2r	2r	2r	2r	2r	2r	2r
.	.	8e'	8g'	.	.	.	.	.	.	.	.	.	.	.
4r	4r	8c'	8en'	.	.	.	.	.	.	.	.	.	.	.
.	.	8r	8r	.	.	.	.	.	.	.	.	.	.	.
=144	=144	=144	=144	=144	=144	=144	=144	=144	=144	=144	=144	=144	=144	=144
4GG	4G	8d'	8f'	2r	2r	2r	2r	2r	2r	2r	2r	2r	2r	2r
.	.	8d'	8f'	.	.	.	.	.	.	.	.	.	.	.
4r	4r	8B'	8d'	.	.	.	.	.	.	.	.	.	.	.
.	.	8r	8r	.	.	.	.	.	.	.	.	.	.	.
*	*	*	*	*	*	*	*clefF4	*clefF4	*clefC4	*clefC4	*	*	*	*
=145	=145	=145	=145	=145	=145	=145	=145	=145	=145	=145	=145	=145	=145	=145
4C	2B-	2G 2en	[2B- [2e	2r	2r	2r	2CC	[2C	2ryy	8c'	2ryy	8cc'	2r	2r
.	.	.	.	.	.	.	.	.	.	8c'	.	8cc'	.	.
4r	.	.	.	.	.	.	.	.	.	8e'	.	8ee'	.	.
.	.	.	.	.	.	.	.	.	.	8e'	.	8ee'	.	.
=146	=146	=146	=146	=146	=146	=146	=146	=146	=146	=146	=146	=146	=146	=146
4C	2G	2d-	2B-] 2e]	2r	2r	2r	2CC	2C_	2ryy	8g'	2ryy	8gg'	2r	2r
.	.	.	.	.	.	.	.	.	.	8g'	.	8gg'	.	.
4r	.	.	.	.	.	.	.	.	.	4e	.	4ee	.	.
=147	=147	=147	=147	=147	=147	=147	=147	=147	=147	=147	=147	=147	=147	=147
4C	2A-	[2Bn [2dn	2A- [2f	2r	2r	2r	2CC	2C_	2ryy	8f'	2ryy	8ff'	2r	2r
.	.	.	.	.	.	.	.	.	.	8f'	.	8ff'	.	.
4r	.	.	.	.	.	.	.	.	.	8d'	.	8dd'	.	.
.	.	.	.	.	.	.	.	.	.	8d'	.	8dd'	.	.
=148	=148	=148	=148	=148	=148	=148	=148	=148	=148	=148	=148	=148	=148	=148
4C	2Bn	2B] 2d]	2G 2f]	2r	2r	2r	2CC	2C_	2ryy	8B'	2ryy	8b'	2r	2r
.	.	.	.	.	.	.	.	.	.	8B'	.	8b'	.	.
4r	.	.	.	.	.	.	.	.	.	4G	.	4g	.	.
=149	=149	=149	=149	=149	=149	=149	=149	=149	=149	=149	=149	=149	=149	=149
[2C	2c	2G 2e	[2B- [2e	16C	2r	2r	4CC	4C]	2ryy	8c'	2ryy	8cc'	2ryy	8r
.	.	.	.	16C	.	.	.	.	.	.	.	.	.	.
.	.	.	.	16C	.	.	.	.	.	8c'	.	8cc'	.	8eeen'
.	.	.	.	16C	.	.	.	.	.	.	.	.	.	.
.	.	.	.	16C	.	.	4ryy	4r	.	8e'	.	8ee'	.	8r
.	.	.	.	16C	.	.	.	.	.	.	.	.	.	.
.	.	.	.	16C	.	.	.	.	.	8e'	.	8ee'	.	8ccc'
.	.	.	.	16C	.	.	.	.	.	.	.	.	.	.
=150	=150	=150	=150	=150	=150	=150	=150	=150	=150	=150	=150	=150	=150	=150
2C_	2G	2d-	2B-] 2e]	16C	2r	2r	2r	2r	2ryy	8g'	2ryy	8gg'	2ryy	8r
.	.	.	.	16C	.	.	.	.	.	.	.	.	.	.
.	.	.	.	16C	.	.	.	.	.	8g'	.	8gg'	.	8bb-'
.	.	.	.	16C	.	.	.	.	.	.	.	.	.	.
.	.	.	.	16C	.	.	.	.	.	4e	.	4ee	.	8r
.	.	.	.	16C	.	.	.	.	.	.	.	.	.	.
.	.	.	.	16C	.	.	.	.	.	.	.	.	.	8gg'
.	.	.	.	16C	.	.	.	.	.	.	.	.	.	.
=151	=151	=151	=151	=151	=151	=151	=151	=151	=151	=151	=151	=151	=151	=151
2C_	2A-	[2Bn [2dn	2A- [2f	16C	2r	2r	2r	2r	2ryy	8f'	2ryy	8ff'	2ryy	8r
.	.	.	.	16C	.	.	.	.	.	.	.	.	.	.
.	.	.	.	16C	.	.	.	.	.	8f'	.	8ff'	.	8aa-'
.	.	.	.	16C	.	.	.	.	.	.	.	.	.	.
.	.	.	.	16C	.	.	.	.	.	8d'	.	8dd'	.	8r
.	.	.	.	16C	.	.	.	.	.	.	.	.	.	.
.	.	.	.	16C	.	.	.	.	.	8d'	.	8dd'	.	8fff'
.	.	.	.	16C	.	.	.	.	.	.	.	.	.	.
=152	=152	=152	=152	=152	=152	=152	=152	=152	=152	=152	=152	=152	=152	=152
2C]	2Bn	2B] 2d]	2G 2f]	16C	2r	2r	2r	2r	2ryy	8B'	2ryy	8b'	2ryy	8r
.	.	.	.	16C	.	.	.	.	.	.	.	.	.	.
.	.	.	.	16C	.	.	.	.	.	8B'	.	8b'	.	8ddd'
.	.	.	.	16C	.	.	.	.	.	.	.	.	.	.
.	.	.	.	16C	.	.	.	.	.	4G	.	4g	.	8r
.	.	.	.	16C	.	.	.	.	.	.	.	.	.	.
.	.	.	.	16C	.	.	.	.	.	.	.	.	.	8bbn'
.	.	.	.	16C	.	.	.	.	.	.	.	.	.	.
*	*	*	*	*	*	*	*clefG2	*clefG2	*	*	*	*	*	*
=153	=153	=153	=153	=153	=153	=153	=153	=153	=153	=153	=153	=153	=153	=153
4C	4c	8c'	8e'	4C	2r	2r	2c	[2g	8c'y	8e'	8e'	8cc'y	2ryy	8ccc'
.	.	8c'	8e'	.	.	.	.	.	8c'y	8e'	8e'	8cc'y	.	8ccc'
4r	4r	8c'	8e'	4r	.	.	.	.	8c'y	8e'	8e'	8cc'y	.	8ccc'
.	.	8e'	8g'	.	.	.	.	.	8e'y	8g'	8g'	8ee'y	.	8eee'
=154	=154	=154	=154	=154	=154	=154	=154	=154	=154	=154	=154	=154	=154	=154
4C	4c	8c'	8e'	2r	2r	2r	2c	2g]	8c'y	8e'	8e'	8cc'y	2ryy	8ccc'
.	.	8c'	8e'	.	.	.	.	.	8c'y	8e'	8e'	8cc'y	.	8ccc'
4r	4r	8c'	8e'	.	.	.	.	.	8c'y	8e'	8e'	8cc'y	.	8ccc'
.	.	8e'	8g'	.	.	.	.	.	8e'y	8g'	8g'	8ee'y	.	8eee'
=155	=155	=155	=155	=155	=155	=155	=155	=155	=155	=155	=155	=155	=155	=155
8C	8G	8c	8e	2r	2r	2r	8c	8g	8c	8e	8e	8cc	2ryy	8ccc
8r	8r	8r	8r	.	.	.	8ryy	8r	8ryy	8r	8ryy	8r	.	8r
8C	8G	8c	8e	.	.	.	8c	8g	8c	8e	8e	8cc	.	8ccc
8r	8r	8r	8r	.	.	.	8ryy	8r	8ryy	8r	8ryy	8r	.	8r
=156	=156	=156	=156	=156	=156	=156	=156	=156	=156	=156	=156	=156	=156	=156
4C	4G	4c	4e	2r	2r	2r	4c	4g	4c	4e	4e	4cc	2ryy	4ccc
4r	4r	4r	4r	.	.	.	4ryy	4r	4ryy	4r	4ryy	4r	.	4r
==	==	==	==	==	==	==	==	==	==	==	==	==	==	==
*-	*-	*-	*-	*-	*-	*-	*-	*-	*-	*-	*-	*-	*-	*-
